(O1158 PRE OP - SOL1-901476 - DRAIN VALVE BLOCK BODY)
(    POSTED 3.26.2026 16..48)
(    FILE NAME CAM - SOL1-901476 - DRAIN VALVE BLOCK BODY)
(MACHINE)
(  VENDOR BROTHER)
(  MODEL SPEEDIO M300X3 APW V3)
(T51 - 3/8 ROUGHER EM 7FL 1.0LOC - HLDR=NBT30-SK13C-90 85MM - OOH=1.2 - PRODID=A-61 -LC-72)
(T52 - 1/8 90DEG CHAMFER - HLDR=NBT30-SK13C-150 - OOH=0.8 - PRODID=L-124 -LC-133)
(T72 - .25 X 45 DOUBLE ANGLE CUTTER - HLDR=NBT30-SK13C-60 - OOH=1 - PRODID=M-198 -LC-189)
G00 G90 G40 G80
G94 G49 G97 G17
G28 G91 Z0
G90
G69
M442 (UNCLAMP A-AXIS)
M444 (UNCLAMP C-AXIS)
G00 A0. C0.

(PRE OP - 3/8 ROUGHER EM 7FL 1.0LOC)
(ROUGH OFF TOP)
M141 (ENABLE MILLING MODE)
G28 C0.
G54
G00 A0. C0.
M443 (CLAMP A-AXIS)
M445 (CLAMP C-AXIS)
G90 G17 G94
N10 G100 T51 X-1.5131 Y-1.1914 G43 Z4.8509 H51 D51 S3259 M03
M298 L3
M08
G00 Z4.2659
G01 Z4.2284 F79.8576
X-1.513 Y-1.1911 Z4.2239
X-1.5128 Y-1.1903 Z4.2195
X-1.5125 Y-1.189 Z4.2151
X-1.512 Y-1.1872 Z4.211
X-1.5115 Y-1.185 Z4.2071
X-1.5108 Y-1.1823 Z4.2036
X-1.51 Y-1.1792 Z4.2004
X-1.5091 Y-1.1757 Z4.1976
X-1.5081 Y-1.1719 Z4.1952
X-1.5071 Y-1.1679 Z4.1934
X-1.506 Y-1.1638 Z4.192
X-1.5049 Y-1.1594 Z4.1912
X-1.5038 Y-1.1551 Z4.1909
G03 X-1.4744 Y-0.9509 I-0.9274 J0.2376
G01 Y-0.9464
G02 X-1.5674 Y-0.7011 I0.3544 J0.2746
X-1.585 Y-0.2138 I3.5232 J0.3712
G01 X-1.5867 Y-0.125
X-1.5869 Y0.0081
Y0.3187
Y0.6294
G02 X-1.4982 Y0.7758 I0.1875 J-0.0135
X-1.2914 Y0.85 I0.2536 J-0.3819
G03 X-1.2327 Y0.86 I-0.0149 J0.2642
G02 X-1.1193 Y0.881 I0.0989 J-0.2175
G01 X1.1193
X1.1305 Y0.8809
X1.153 Y0.8805
X1.1549 Y0.8803
X1.3765 Y0.8707
G02 X1.5086 Y0.7591 I-0.0639 J-0.2096
X1.5771 Y0.4592 I-0.5962 J-0.2939
X1.5869 Y-0.1619 I-10.0166 J-0.4682
G01 Y-0.5168
Y-0.65
G02 X1.4827 Y-0.7873 I-0.2029 J0.0458
X1.2458 Y-0.8562 I-0.2673 J0.4777
G01 X1.2338 Y-0.8604
X1.222 Y-0.8648
G02 X1.1193 Y-0.881 I-0.089 J0.2298
G01 X-1.1193
X-1.1305 Y-0.8809
X-1.153 Y-0.8805
X-1.1549 Y-0.8803
X-1.1992 Y-0.8775
G02 X-1.4197 Y-0.7553 I-0.0164 J0.2304
X-1.4983 Y-0.4582 I0.5597 J0.3071
X-1.5104 Y0.074 I5.6513 J0.3943
G01 X-1.5118 Y0.2072
X-1.5119 Y0.4734
G02 X-1.3879 Y0.6944 I0.2444 J0.0082
G03 X-1.3371 Y0.7532 I-0.0701 J0.1118
G02 X-1.29 Y0.8209 I0.1866 J-0.0797
G03 X-1.2801 Y0.8492 I-0.0274 J0.0256
G01 X-1.2804 Y0.8537 Z4.1912
X-1.2807 Y0.8582 Z4.192
X-1.281 Y0.8625 Z4.1934
X-1.2813 Y0.8666 Z4.1952
X-1.2816 Y0.8705 Z4.1976
X-1.2819 Y0.874 Z4.2004
X-1.2821 Y0.8772 Z4.2036
X-1.2823 Y0.88 Z4.2071
X-1.2825 Y0.8823 Z4.211
X-1.2827 Y0.8842 Z4.2151
X-1.2828 Y0.8855 Z4.2195
Y0.8863 Z4.2239
Y0.8866 Z4.2284
G00 Z4.4509
X-1.0965 Y-0.915
Z4.2659
G01 Z4.2284 F79.8576
X-1.0968 Y-0.9148 Z4.2239
X-1.0974 Y-0.9143 Z4.2195
X-1.0985 Y-0.9135 Z4.2151
X-1.1 Y-0.9124 Z4.211
X-1.1018 Y-0.911 Z4.2071
X-1.104 Y-0.9093 Z4.2036
X-1.1066 Y-0.9073 Z4.2004
X-1.1094 Y-0.9052 Z4.1976
X-1.1125 Y-0.9028 Z4.1952
X-1.1158 Y-0.9003 Z4.1934
X-1.1193 Y-0.8977 Z4.192
X-1.1228 Y-0.895 Z4.1912
X-1.1264 Y-0.8923 Z4.1909
G03 X-1.1549 Y-0.8803 I-0.0377 J-0.0496
G02 X-1.3425 Y-0.7411 I0.0128 J0.2133
X-1.427 Y-0.3083 I1.0702 J0.4337
X-1.4351 Y0.4015 I11.0619 J0.4813
X-1.3658 Y0.5696 I0.368 J-0.0534
G01 X-1.3609 Y0.5872
X-1.3572 Y0.6046
X-1.356 Y0.6224
Y0.6522
X-1.3555 Y0.6758
X-1.3548 Y0.6859
G03 X-1.3657 Y0.7139 I-0.0375 J0.0015
G01 X-1.3689 Y0.7171 Z4.1912
X-1.3721 Y0.7202 Z4.192
X-1.3751 Y0.7233 Z4.1934
X-1.3781 Y0.7262 Z4.1952
X-1.3808 Y0.729 Z4.1976
X-1.3833 Y0.7315 Z4.2004
X-1.3856 Y0.7337 Z4.2036
X-1.3876 Y0.7357 Z4.2071
X-1.3892 Y0.7374 Z4.211
X-1.3905 Y0.7387 Z4.2151
X-1.3915 Y0.7396 Z4.2195
X-1.3921 Y0.7402 Z4.2239
X-1.3923 Y0.7404 Z4.2284
G00 Z4.4509
X-1.3487 Y-0.8086
Z4.2659
G01 Z4.2284 F79.8576
X-1.3486 Y-0.8083 Z4.2239
X-1.3484 Y-0.8075 Z4.2195
X-1.3482 Y-0.8062 Z4.2151
X-1.3478 Y-0.8044 Z4.211
X-1.3473 Y-0.8021 Z4.2071
X-1.3467 Y-0.7993 Z4.2036
X-1.3461 Y-0.7962 Z4.2004
X-1.3453 Y-0.7927 Z4.1976
X-1.3445 Y-0.7889 Z4.1952
X-1.3437 Y-0.7849 Z4.1934
X-1.3428 Y-0.7806 Z4.192
X-1.3419 Y-0.7763 Z4.1912
X-1.3409 Y-0.7719 Z4.1909
G03 X-1.3423 Y-0.741 I-0.061 J0.0128
G02 X-1.356 Y-0.6522 I0.2206 J0.0795
G01 Y-0.5397
Y0.6224
G03 X-1.369 Y0.6495 I-0.0375 J-0.0013
G01 X-1.3724 Y0.6524 Z4.1912
X-1.3758 Y0.6553 Z4.192
X-1.3791 Y0.6582 Z4.1934
X-1.3822 Y0.6609 Z4.1952
X-1.3851 Y0.6634 Z4.1976
X-1.3878 Y0.6657 Z4.2004
X-1.3903 Y0.6678 Z4.2036
X-1.3924 Y0.6696 Z4.2071
X-1.3941 Y0.6712 Z4.211
X-1.3956 Y0.6724 Z4.2151
X-1.3966 Y0.6733 Z4.2195
X-1.3972 Y0.6738 Z4.2239
X-1.3974 Y0.674 Z4.2284
G00 Z4.4509
X1.0965 Y0.915
Z4.2659
G01 Z4.2284 F79.8576
X1.0968 Y0.9148 Z4.2239
X1.0974 Y0.9143 Z4.2195
X1.0985 Y0.9135 Z4.2151
X1.1 Y0.9124 Z4.211
X1.1018 Y0.911 Z4.2071
X1.104 Y0.9093 Z4.2036
X1.1066 Y0.9073 Z4.2004
X1.1094 Y0.9052 Z4.1976
X1.1125 Y0.9028 Z4.1952
X1.1158 Y0.9003 Z4.1934
X1.1193 Y0.8977 Z4.192
X1.1228 Y0.895 Z4.1912
X1.1264 Y0.8923 Z4.1909
G03 X1.1549 Y0.8803 I0.0377 J0.0496
G02 X1.2453 Y0.8546 I-0.0194 J-0.24
X1.4627 Y0.5897 I-0.1584 J-0.3516
X1.5046 Y0.2829 I-1.1172 J-0.3089
X1.5106 Y-0.5158 I-16.6912 J-0.5264
X1.375 Y-0.7034 I-0.2544 J0.0411
G03 X1.3361 Y-0.7555 I0.0979 J-0.1136
G02 X1.2818 Y-0.8283 I-0.1868 J0.0827
G03 X1.27 Y-0.856 I0.0257 J-0.0273
G01 Y-0.8605 Z4.1912
X1.2701 Y-0.8649 Z4.192
Y-0.8693 Z4.1934
X1.2702 Y-0.8734 Z4.1952
Y-0.8773 Z4.1976
Y-0.8808 Z4.2004
X1.2703 Y-0.884 Z4.2036
Y-0.8868 Z4.2071
Y-0.8892 Z4.211
Y-0.891 Z4.2151
Y-0.8924 Z4.2195
Y-0.8932 Z4.2239
Y-0.8935 Z4.2284
G00 Z4.4509
X1.2078 Y0.9112
Z4.2659
G01 Z4.2284 F79.8576
X1.208 Y0.911 Z4.2239
X1.2083 Y0.9103 Z4.2195
X1.2089 Y0.9091 Z4.2151
X1.2098 Y0.9074 Z4.211
X1.2108 Y0.9053 Z4.2071
X1.2121 Y0.9028 Z4.2036
X1.2136 Y0.9 Z4.2004
X1.2152 Y0.8968 Z4.1976
X1.2169 Y0.8933 Z4.1952
X1.2188 Y0.8897 Z4.1934
X1.2208 Y0.8858 Z4.192
X1.2228 Y0.8818 Z4.1912
X1.2248 Y0.8778 Z4.1909
G03 X1.2453 Y0.8546 I0.0555 J0.0283
G02 X1.3457 Y0.731 I-0.1051 J-0.1881
X1.4302 Y0.1629 I-1.7395 J-0.549
X1.4347 Y-0.4139 I-9.9693 J-0.3668
X1.3665 Y-0.5691 I-0.4104 J0.0879
G01 X1.3611 Y-0.5868
X1.3573 Y-0.6046
X1.356 Y-0.6227
Y-0.6522
X1.3555 Y-0.6747
G03 X1.368 Y-0.702 I0.0375 J0.0006
G01 X1.3714 Y-0.705 Z4.1912
X1.3747 Y-0.708 Z4.192
X1.3779 Y-0.7109 Z4.1934
X1.381 Y-0.7137 Z4.1952
X1.3839 Y-0.7162 Z4.1976
X1.3865 Y-0.7186 Z4.2004
X1.3889 Y-0.7208 Z4.2036
X1.391 Y-0.7226 Z4.2071
X1.3927 Y-0.7242 Z4.211
X1.3941 Y-0.7254 Z4.2151
X1.3951 Y-0.7263 Z4.2195
X1.3957 Y-0.7269 Z4.2239
X1.3959 Y-0.7271 Z4.2284
G00 Z4.4509
X1.3558 Y0.798
Z4.2659
G01 Z4.2284 F79.8576
X1.3557 Y0.7977 Z4.2239
X1.3555 Y0.797 Z4.2195
X1.3551 Y0.7957 Z4.2151
X1.3546 Y0.7939 Z4.211
X1.354 Y0.7916 Z4.2071
X1.3533 Y0.7889 Z4.2036
X1.3524 Y0.7858 Z4.2004
X1.3515 Y0.7824 Z4.1976
X1.3505 Y0.7786 Z4.1952
X1.3494 Y0.7747 Z4.1934
X1.3483 Y0.7705 Z4.192
X1.3471 Y0.7662 Z4.1912
X1.3459 Y0.7618 Z4.1909
G03 X1.3454 Y0.7309 I0.0601 J-0.0164
G02 X1.356 Y0.6522 I-0.2256 J-0.0703
G01 Y0.5397
Y-0.6227
X1.3567 Y-0.6264 Z4.1912
X1.3573 Y-0.6299 Z4.1918
X1.3579 Y-0.6334 Z4.1929
X1.3597 Y-0.6369 Z4.1947
X1.3613 Y-0.6401 Z4.197
X1.3628 Y-0.643 Z4.1998
X1.3646 Y-0.645 Z4.2029
X1.3662 Y-0.6467 Z4.2063
X1.3674 Y-0.6481 Z4.2099
X1.3683 Y-0.6491 Z4.2138
X1.3688 Y-0.6496 Z4.2178
X1.369 Y-0.6498 Z4.2218
G00 Z4.4509
X1.5764 Y-0.7979
Z4.27
G01 Z4.2325 F79.8576
X1.5761 Y-0.7978 Z4.228
X1.5753 Y-0.7976 Z4.2236
X1.574 Y-0.7973 Z4.2192
X1.5722 Y-0.7968 Z4.2151
X1.5699 Y-0.7962 Z4.2112
X1.5672 Y-0.7955 Z4.2077
X1.5641 Y-0.7947 Z4.2045
X1.5607 Y-0.7939 Z4.2017
X1.5569 Y-0.7929 Z4.1993
X1.5529 Y-0.7919 Z4.1975
X1.5487 Y-0.7908 Z4.1961
X1.5444 Y-0.7897 Z4.1953
X1.54 Y-0.7886 Z4.195
G03 X1.3359 Y-0.7592 I-0.2376 J-0.9274
G02 X0.8928 Y-0.8026 I-0.3773 J1.5704
X0.4934 Y-0.8059 I-0.2875 J10.4096
G01 X0.1828 Y-0.806
X-0.6603
X-1.0153
G02 X-1.171 Y-0.7355 I-0.0116 J0.1817
X-1.262 Y-0.4895 I0.3609 J0.2735
X-1.2791 Y-0.0021 I3.6086 J0.3707
G01 X-1.2808 Y0.0867
X-1.2809 Y0.2198
X-1.281 Y0.5304
G02 X-1.218 Y0.6896 I0.184 J0.0193
X-0.9743 Y0.7857 I0.2737 J-0.3371
X-0.487 Y0.804 I0.3713 J-3.379
G01 X-0.3982 Y0.8058
X-0.2651 Y0.8059
X0.0455 Y0.806
X0.7555
X1.0217
G02 X1.175 Y0.7306 I0.0058 J-0.1818
X1.2629 Y0.4831 I-0.3774 J-0.2733
X1.2792 Y-0.0043 I-3.7694 J-0.3703
G01 X1.2808 Y-0.0931
X1.2809 Y-0.2262
X1.281 Y-0.4925
G02 X1.1828 Y-0.6344 I-0.2091 J0.0397
G01 X1.1448 Y-0.6574
X1.1042 Y-0.6754
X1.0622 Y-0.6894
G02 X0.6658 Y-0.7271 I-0.3426 J1.499
X0.2221 Y-0.7309 I-0.3305 J12.7366
G01 X-0.0442 Y-0.731
X-0.8873
X-0.9316 Y-0.7285
G02 X-1.1278 Y-0.5645 I0.0555 J0.2659
X-1.1942 Y-0.2633 I0.6922 J0.3103
X-1.2045 Y0.402 I8.8009 J0.4697
X-1.1224 Y0.5992 I0.2316 J0.0192
X-0.837 Y0.7089 I0.3182 J-0.4014
X-0.6159 Y0.7262 I0.2339 J-1.5719
X-0.0834 Y0.7309 I0.4238 J-17.7116
G01 X0.1828 Y0.731
X0.8928
G02 X1.1092 Y0.5983 I-0.0035 J-0.2486
X1.1805 Y0.3899 I-0.456 J-0.2725
X1.2037 Y-0.097 I-3.0726 J-0.3901
X1.205 Y-0.3633 I-5.265 J-0.1597
X1.0517 Y-0.5678 I-0.2657 J0.0395
X0.7528 Y-0.6419 I-0.3156 J0.6336
X0.1762 Y-0.6543 I-0.4243 J6.2943
G01 X0.0875 Y-0.6559
X-0.1344 Y-0.656
X-0.7556
G02 X-1.0409 Y-0.4832 I-0.0195 J0.2896
X-1.1154 Y-0.1842 I0.6565 J0.3225
X-1.1294 Y0.3035 I4.9216 J0.385
X-0.9766 Y0.5556 I0.2777 J0.004
X-0.6802 Y0.6384 I0.3245 J-0.5899
X-0.1926 Y0.6542 I0.387 J-4.3894
G01 X-0.1482 Y0.6555
X-0.0594 Y0.6557
X0.0737 Y0.6559
X0.3399 Y0.656
X0.6949
G02 X0.8711 Y0.6421 I0.0433 J-0.5727
X1.0697 Y0.4169 I-0.1315 J-0.3162
X1.121 Y0.1119 I-0.9437 J-0.3155
X1.1294 Y-0.243 I-4.8983 J-0.2939
X0.9612 Y-0.4867 I-0.2906 J0.0206
X0.663 Y-0.5642 I-0.3259 J0.6413
X0.4415 Y-0.577 I-0.2366 J2.1818
X-0.0909 Y-0.5809 I-0.432 J22.5894
G01 X-0.3572 Y-0.581
X-0.6234
G02 X-0.7982 Y-0.5582 I-0.0339 J0.4217
X-0.9919 Y-0.3271 I0.1608 J0.3316
X-1.0447 Y-0.0222 I0.9712 J0.3251
G01 X-1.0481 Y0.022
X-1.05 Y0.0664
X-1.0515 Y0.1107
G02 X-1.0438 Y0.2875 I0.6928 J0.0585
X-0.8357 Y0.5035 I0.3216 J-0.1017
X-0.4891 Y0.5697 I0.3498 J-0.8912
X0.1763 Y0.5809 I0.5166 J-10.9385
G01 X0.3982 Y0.581
X0.6644
G02 X0.9543 Y0.4108 I0.0131 J-0.3096
X1.0405 Y0.0698 I-0.687 J-0.3551
X1.0462 Y-0.1959 I-1.2187 J-0.1589
X0.8482 Y-0.421 I-0.3216 J0.0832
X0.5031 Y-0.4932 I-0.3538 J0.8299
X0.1484 Y-0.5042 I-0.3081 J4.2049
X-0.2066 Y-0.5059 I-0.2805 J22.4313
G01 X-0.4285 Y-0.506
G02 X-0.6501 Y-0.5002 I-0.0641 J1.7866
X-0.9024 Y-0.2725 I0.0764 J0.3384
X-0.966 Y0.0299 I0.8269 J0.3317
X-0.9467 Y0.2484 I0.4057 J0.0743
X-0.7129 Y0.4401 I0.3404 J-0.1767
X-0.3196 Y0.4977 I0.3745 J-1.1857
X0.3016 Y0.5059 I0.4823 J-13.0213
G01 X0.5234 Y0.506
G02 X0.7397 Y0.4688 I0.0385 J-0.4232
X0.9322 Y0.1826 I-0.228 J-0.3612
X0.9633 Y0.008 I-0.8323 J-0.2383
X0.7956 Y-0.3254 I-0.3088 J-0.0536
X0.4552 Y-0.4138 I-0.3608 J0.6892
X-0.1656 Y-0.4289 I-0.4618 J6.2173
X-0.5647 Y-0.4253 I-0.164 J3.9176
X-0.7525 Y-0.3137 I0.0706 J0.3325
X-0.8786 Y0.1015 I0.486 J0.3743
X-0.691 Y0.3346 I0.3197 J-0.0652
X-0.3481 Y0.4153 I0.3614 J-0.7676
X0.2728 Y0.4291 I0.463 J-6.8309
X0.539 Y0.4279 I0.1188 J-3.1637
X0.8102 Y0.2238 I-0.0427 J-0.339
X0.8676 Y-0.0324 I-0.4044 J-0.2252
X0.677 Y-0.2629 I-0.3169 J0.068
X0.3333 Y-0.3408 I-0.3601 J0.7914
X-0.332 Y-0.3543 I-0.4922 J7.8526
G01 X-0.3764 Y-0.3557
G02 X-0.6267 Y-0.2825 I-0.0269 J0.3731
X-0.7741 Y-0.0167 I0.2752 J0.3262
X-0.6269 Y0.2395 I0.2827 J0.008
X-0.3334 Y0.3318 I0.34 J-0.5689
X0.2426 Y0.3536 I0.4542 J-4.3737
X0.4644 Y0.3511 I0.0917 J-1.7278
X0.7462 Y0.1004 I-0.0489 J-0.3388
X0.6513 Y-0.1352 I-0.2456 J-0.038
X0.3673 Y-0.2498 I-0.3385 J0.4296
X-0.1194 Y-0.2777 I-0.4087 J2.8706
X-0.4292 Y-0.2678 I-0.1068 J1.5027
X-0.6076 Y-0.1416 I0.0978 J0.3275
X-0.6025 Y0.0692 I0.1694 J0.1013
X-0.348 Y0.2324 I0.3222 J-0.2223
X-0.0406 Y0.2721 I0.3172 J-1.247
X0.3586 Y0.278 I0.2772 J-5.2342
X0.5575 Y0.1912 I-0.012 J-0.2989
X0.5682 Y0.0213 I-0.1417 J-0.0942
X0.3676 Y-0.1422 I-0.2888 J0.1494
G01 X0.3256 Y-0.1569
X0.2826 Y-0.1677
G02 X-0.0265 Y-0.1931 I-0.3042 J1.8114
X-0.3365 Y-0.187 I-0.1229 J1.6419
X-0.4117 Y0.0148 I0.0481 J0.1328
G01 X-0.3873 Y0.0519
G02 X-0.1057 Y0.1703 I0.3239 J-0.3764
X0.237 Y0.1942 I0.309 J-1.9621
G01 Y0.1943
G03 X0.2555 Y0.2132 Z4.199 J0.0186
X0.2364 Y0.2314 Z4.203 I-0.0186 J-0.0003
G01 X0.2348 Y0.2313
X-0.0607 Y0.1963
X-0.0887 Y0.193 Z4.1992
X-0.0897 Y0.1929 Z4.1991
G03 X-0.1058 Y0.1717 Z4.195 I0.0022 J-0.0184
G01 X-0.1038 Y0.1608
G03 X0.0468 Y0.1273 I0.156 J0.3457
G01 X0.0511 Y0.1271
X0.0554 Y0.1274
X0.0596 Y0.1282
X0.0638 Y0.1296
X0.0677 Y0.1314
X0.0715 Y0.1337
X0.075 Y0.1364
X0.0782 Y0.1395 Z4.1953
X0.0815 Y0.1426 Z4.1961
X0.0846 Y0.1456 Z4.1975
X0.0876 Y0.1485 Z4.1993
X0.0904 Y0.1511 Z4.2017
X0.0929 Y0.1536 Z4.2045
X0.0952 Y0.1558 Z4.2077
X0.0973 Y0.1578 Z4.2112
X0.0989 Y0.1594 Z4.2151
X0.1003 Y0.1607 Z4.2192
X0.1013 Y0.1616 Z4.2236
X0.1018 Y0.1622 Z4.228
X0.102 Y0.1623 Z4.2325
G00 Z4.8509

(PRE OP - 3/8 ROUGHER EM 7FL 1.0LOC)
(ROUGH OUTSIDE)
G00 X-1.5131 Y-1.1914
Z4.8509
Z3.8299
G01 Z3.7924 F79.8576
X-1.513 Y-1.1911 Z3.7879
X-1.5128 Y-1.1903 Z3.7835
X-1.5125 Y-1.189 Z3.7791
X-1.512 Y-1.1872 Z3.775
X-1.5115 Y-1.185 Z3.7711
X-1.5108 Y-1.1823 Z3.7676
X-1.51 Y-1.1792 Z3.7644
X-1.5091 Y-1.1757 Z3.7616
X-1.5081 Y-1.1719 Z3.7592
X-1.5071 Y-1.1679 Z3.7574
X-1.506 Y-1.1638 Z3.756
X-1.5049 Y-1.1594 Z3.7552
X-1.5038 Y-1.1551 Z3.7549
G03 X-1.4744 Y-0.9509 I-0.9274 J0.2376
G01 Y-0.9454
G02 X-1.6126 Y-0.7808 I0.1079 J0.2307
X-1.6377 Y-0.4724 I1.0485 J0.2405
G01 X-1.6393 Y-0.4279
Y-0.3836
X-1.6394 Y-0.2505
Y0.6814
G02 X-1.5338 Y0.8648 I0.2091 J0.0017
G01 X-1.4943 Y0.8851
X-1.4525 Y0.8998
G02 X-1.1437 Y0.9222 I0.2396 J-1.1595
G01 X-1.0993 Y0.9237
X-1.0105 Y0.9238
X-0.6555 Y0.9239
X0.5425 Y0.924
X1.3856 Y0.9241
G02 X1.5737 Y0.8289 I0.0179 J-0.1979
X1.6354 Y0.574 I-0.3898 J-0.2292
X1.6394 Y0.2189 I-6.7649 J-0.2549
G01 Y-0.0917
Y-0.7129
G02 X1.5071 Y-0.8798 I-0.2214 J0.0396
X1.2463 Y-0.9213 I-0.225 J0.5741
X0.9357 Y-0.9239 I-0.223 J8.0137
G01 X0.3588 Y-0.924
X-1.3274 Y-0.9242
G02 X-1.55 Y-0.8055 I-0.0189 J0.2328
G01 X-1.5713 Y-0.7666
G02 X-1.6142 Y-0.4613 I0.71 J0.2554
X-1.6169 Y-0.2394 I4.3775 J0.1645
G01 Y0.0269
Y0.6037
G02 X-1.4624 Y0.8506 I0.2494 J0.0157
X-1.2027 Y0.8978 I0.2351 J-0.5565
G01 X-1.1583 Y0.9
G02 X-0.8921 Y0.9014 I0.2206 J-17.3058
G01 X-0.3152
X0.8385 Y0.9016
X1.3266
G02 X1.5693 Y0.7407 I0.0093 J-0.2495
X1.6123 Y0.5246 I-0.5061 J-0.2131
X1.6169 Y0.1253 I-8.324 J-0.2965
G01 Y-0.4516
Y-0.629
G02 X1.4392 Y-0.8605 I-0.2542 J0.0113
X1.2217 Y-0.8976 I-0.2088 J0.5687
X0.9111 Y-0.9014 I-0.2414 J7.0605
G01 X0.5561
X-0.0651 Y-0.9015
X-1.3076 Y-0.9017
G02 X-1.5446 Y-0.7273 I0.0173 J0.2718
X-1.5905 Y-0.467 I0.6058 J0.241
X-1.594 Y-0.2895 I2.9101 J0.1463
G01 X-1.5943 Y-0.2452
X-1.5944 Y-0.1564
Y0.1098
Y0.5536
G02 X-1.412 Y0.8307 I0.2785 J0.0152
X-1.1868 Y0.8744 I0.2312 J-0.5888
X-1.1193 Y0.881 I0.0536 J-0.2
G01 X1.1193
X1.1305 Y0.8809
X1.153 Y0.8805
X1.1974 Y0.8797
X1.2861 Y0.8792
G02 X1.5523 Y0.681 I-0.0012 J-0.2795
X1.5916 Y0.4192 I-0.7324 J-0.2438
X1.5944 Y0.1086 I-9.7611 J-0.2424
G01 Y-0.2908
Y-0.557
G02 X1.486 Y-0.789 I-0.2719 J-0.0142
X1.2005 Y-0.8725 I-0.2748 J0.4094
G01 X1.1936 Y-0.8746
X1.1868 Y-0.8757
G02 X1.1193 Y-0.881 I-0.0564 J0.286
G01 X-1.1193
X-1.1305 Y-0.8809
X-1.153 Y-0.8805
G02 X-1.3297 Y-0.8685 I-0.0348 J0.7947
X-1.5349 Y-0.6523 I0.0953 J0.296
X-1.5694 Y-0.345 I0.9396 J0.2608
X-1.5719 Y-0.0788 I6.98 J0.1996
G01 Y0.2762
Y0.4981
G02 X-1.4098 Y0.7915 I0.3003 J0.0256
X-1.2778 Y0.8369 I0.228 J-0.4475
G01 X-1.2651 Y0.8429
X-1.2529 Y0.8498
G02 X-1.1868 Y0.8756 I0.1076 J-0.1781
G01 X-1.1826 Y0.8772
X-1.1787 Y0.8792
X-1.1751 Y0.8817
X-1.1717 Y0.8847
X-1.1688 Y0.8879
X-1.1662 Y0.8915
X-1.1641 Y0.8954
X-1.1622 Y0.8995 Z3.7552
X-1.1603 Y0.9035 Z3.756
X-1.1584 Y0.9074 Z3.7574
X-1.1566 Y0.9112 Z3.7592
X-1.155 Y0.9147 Z3.7616
X-1.1534 Y0.9179 Z3.7644
X-1.1521 Y0.9208 Z3.7676
X-1.1509 Y0.9233 Z3.7711
X-1.1499 Y0.9254 Z3.775
X-1.1491 Y0.9271 Z3.7791
X-1.1485 Y0.9283 Z3.7835
X-1.1481 Y0.9291 Z3.7879
X-1.148 Y0.9293 Z3.7924
G00 Z4.4509
X-1.0947 Y-0.9152
Z3.8299
G01 Z3.7924 F79.8576
X-1.0949 Y-0.915 Z3.7879
X-1.0955 Y-0.9145 Z3.7835
X-1.0966 Y-0.9137 Z3.7791
X-1.0981 Y-0.9126 Z3.775
X-1.0999 Y-0.9112 Z3.7711
X-1.1022 Y-0.9095 Z3.7676
X-1.1047 Y-0.9075 Z3.7644
X-1.1076 Y-0.9054 Z3.7616
X-1.1107 Y-0.903 Z3.7592
X-1.1139 Y-0.9005 Z3.7574
X-1.1174 Y-0.8979 Z3.756
X-1.1209 Y-0.8952 Z3.7552
X-1.1245 Y-0.8925 Z3.7549
G03 X-1.153 Y-0.8805 I-0.0377 J-0.0496
G02 X-1.193 Y-0.8741 I0.0207 J0.2571
X-1.3613 Y-0.8205 I0.0691 J0.5077
X-1.5248 Y-0.5672 I0.1981 J0.3073
X-1.5476 Y-0.2582 I1.3762 J0.2568
X-1.5494 Y-0.0363 I7.0299 J0.1675
G01 Y0.23
Y0.4518
G02 X-1.469 Y0.6986 I0.3343 J0.0276
X-1.3214 Y0.7937 I0.2975 J-0.2997
G01 X-1.3088 Y0.8034
X-1.2971 Y0.8138
G02 X-1.2529 Y0.8498 I0.1581 J-0.1491
G03 X-1.2369 Y0.8752 I-0.0211 J0.031
G01 X-1.2363 Y0.8797 Z3.7552
X-1.2356 Y0.8841 Z3.756
X-1.235 Y0.8884 Z3.7574
X-1.2344 Y0.8925 Z3.7592
X-1.2338 Y0.8963 Z3.7616
X-1.2333 Y0.8998 Z3.7644
X-1.2328 Y0.903 Z3.7676
X-1.2324 Y0.9058 Z3.7711
X-1.232 Y0.9081 Z3.775
X-1.2318 Y0.9099 Z3.7791
X-1.2316 Y0.9113 Z3.7835
X-1.2314 Y0.9121 Z3.7879
Y0.9123 Z3.7924
G00 Z4.4509
X-1.1407 Y-0.9173
Z3.8299
G01 Z3.7924 F79.8576
X-1.1409 Y-0.9171 Z3.7879
X-1.1414 Y-0.9165 Z3.7835
X-1.1424 Y-0.9155 Z3.7791
X-1.1437 Y-0.9142 Z3.775
X-1.1453 Y-0.9125 Z3.7711
X-1.1472 Y-0.9105 Z3.7676
X-1.1494 Y-0.9082 Z3.7644
X-1.1519 Y-0.9056 Z3.7616
X-1.1546 Y-0.9028 Z3.7592
X-1.1575 Y-0.8999 Z3.7574
X-1.1605 Y-0.8967 Z3.756
X-1.1635 Y-0.8935 Z3.7552
X-1.1667 Y-0.8903 Z3.7549
G03 X-1.193 Y-0.874 I-0.0449 J-0.0432
G02 X-1.2453 Y-0.8546 I0.0598 J0.2413
X-1.4221 Y-0.7239 I0.1868 J0.4378
X-1.5192 Y-0.3882 I0.4835 J0.3217
X-1.5269 Y0.0111 I5.6151 J0.3076
G01 Y0.2329
G02 X-1.5229 Y0.499 I3.1971 J0.0844
X-1.3594 Y0.7392 I0.3285 J-0.0479
G01 X-1.347 Y0.7504
X-1.3357 Y0.7625
X-1.3261 Y0.7759
G02 X-1.2971 Y0.8138 I0.1745 J-0.1035
G03 X-1.2871 Y0.8421 I-0.0274 J0.0256
G01 X-1.2875 Y0.8466 Z3.7552
X-1.2878 Y0.8511 Z3.756
X-1.2881 Y0.8554 Z3.7574
X-1.2884 Y0.8595 Z3.7592
X-1.2887 Y0.8634 Z3.7616
X-1.289 Y0.8669 Z3.7644
X-1.2892 Y0.8701 Z3.7676
X-1.2894 Y0.8729 Z3.7711
X-1.2896 Y0.8752 Z3.775
X-1.2897 Y0.8771 Z3.7791
X-1.2898 Y0.8784 Z3.7835
X-1.2899 Y0.8792 Z3.7879
Y0.8795 Z3.7924
G00 Z4.4509
X-1.2078 Y-0.9112
Z3.8299
G01 Z3.7924 F79.8576
X-1.208 Y-0.911 Z3.7879
X-1.2083 Y-0.9103 Z3.7835
X-1.2089 Y-0.9091 Z3.7791
X-1.2098 Y-0.9074 Z3.775
X-1.2108 Y-0.9053 Z3.7711
X-1.2121 Y-0.9028 Z3.7676
X-1.2136 Y-0.9 Z3.7644
X-1.2152 Y-0.8968 Z3.7616
X-1.2169 Y-0.8933 Z3.7592
X-1.2188 Y-0.8897 Z3.7574
X-1.2208 Y-0.8858 Z3.756
X-1.2228 Y-0.8818 Z3.7552
X-1.2248 Y-0.8778 Z3.7549
G03 X-1.2453 Y-0.8546 I-0.0555 J-0.0283
G02 X-1.2891 Y-0.8218 I0.1152 J0.1997
X-1.4897 Y-0.4404 I0.3256 J0.4147
X-1.5031 Y-0.0416 I3.036 J0.3016
X-1.5024 Y0.4465 I12.9577 J0.225
X-1.3711 Y0.6937 I0.3654 J-0.0356
G01 X-1.3593 Y0.7087
X-1.3493 Y0.7248
X-1.3419 Y0.7421
X-1.3322 Y0.7646
X-1.3296 Y0.7703
X-1.3261 Y0.7759
G03 X-1.3229 Y0.8058 I-0.0326 J0.0186
G01 X-1.3243 Y0.8101 Z3.7552
X-1.3256 Y0.8143 Z3.756
X-1.3269 Y0.8184 Z3.7574
X-1.3282 Y0.8224 Z3.7592
X-1.3293 Y0.8261 Z3.7616
X-1.3304 Y0.8295 Z3.7644
X-1.3314 Y0.8325 Z3.7676
X-1.3322 Y0.8352 Z3.7711
X-1.3329 Y0.8374 Z3.775
X-1.3335 Y0.8392 Z3.7791
X-1.3339 Y0.8405 Z3.7835
X-1.3341 Y0.8413 Z3.7879
X-1.3342 Y0.8415 Z3.7924
G00 Z4.4509
X-1.2651 Y-0.8852
Z3.8299
G01 Z3.7924 F79.8576
Y-0.885 Z3.7879
X-1.2653 Y-0.8842 Z3.7835
X-1.2657 Y-0.8829 Z3.7791
X-1.2661 Y-0.8811 Z3.775
X-1.2667 Y-0.8788 Z3.7711
X-1.2674 Y-0.8761 Z3.7676
X-1.2682 Y-0.873 Z3.7644
X-1.2691 Y-0.8695 Z3.7616
X-1.27 Y-0.8658 Z3.7592
X-1.271 Y-0.8618 Z3.7574
X-1.2721 Y-0.8576 Z3.756
X-1.2732 Y-0.8533 Z3.7552
X-1.2743 Y-0.8489 Z3.7549
G03 X-1.2891 Y-0.8218 I-0.0604 J-0.0154
G02 X-1.3295 Y-0.7702 I0.1541 J0.1623
X-1.4731 Y-0.3509 I0.5847 J0.4344
X-1.4796 Y0.4032 I10.5872 J0.4691
X-1.374 Y0.6512 I0.4095 J-0.028
G03 X-1.3514 Y0.7084 I-0.1198 J0.0804
G01 X-1.3486 Y0.7197
X-1.3443 Y0.7351
X-1.3419 Y0.7421
G03 X-1.3454 Y0.772 I-0.0359 J0.0109
G01 X-1.3477 Y0.7759 Z3.7552
X-1.35 Y0.7797 Z3.756
X-1.3521 Y0.7835 Z3.7574
X-1.3542 Y0.787 Z3.7592
X-1.3562 Y0.7904 Z3.7616
X-1.358 Y0.7934 Z3.7644
X-1.3596 Y0.7962 Z3.7676
X-1.361 Y0.7986 Z3.7711
X-1.3622 Y0.8006 Z3.775
X-1.3632 Y0.8022 Z3.7791
X-1.3638 Y0.8034 Z3.7835
X-1.3643 Y0.8041 Z3.7879
X-1.3644 Y0.8043 Z3.7924
G00 Z4.4509
X-1.3288 Y-0.8381
Z3.8299
G01 Z3.7924 F79.8576
Y-0.8379 Z3.7879
X-1.3287 Y-0.8371 Z3.7835
X-1.3286 Y-0.8357 Z3.7791
X-1.3284 Y-0.8339 Z3.775
X-1.3281 Y-0.8315 Z3.7711
X-1.3279 Y-0.8288 Z3.7676
X-1.3275 Y-0.8256 Z3.7644
X-1.3272 Y-0.822 Z3.7616
X-1.3268 Y-0.8182 Z3.7592
X-1.3264 Y-0.8141 Z3.7574
X-1.3259 Y-0.8098 Z3.756
X-1.3255 Y-0.8053 Z3.7552
X-1.325 Y-0.8008 Z3.7549
G03 X-1.3296 Y-0.7703 I-0.062 J0.0063
G01 X-1.3322 Y-0.7646
X-1.3419 Y-0.7421
X-1.3443 Y-0.7351
G02 X-1.4261 Y-0.51 I1.6919 J0.7424
X-1.4571 Y-0.024 I2.1754 J0.3828
X-1.4531 Y0.4196 I4.313 J0.1826
X-1.3637 Y0.6249 I0.6026 J-0.1402
G01 X-1.36 Y0.6408
X-1.3569 Y0.6562
X-1.3556 Y0.672
G03 X-1.3681 Y0.6993 I-0.0375 J-0.0006
G01 X-1.3714 Y0.7023 Z3.7552
X-1.3747 Y0.7053 Z3.756
X-1.378 Y0.7082 Z3.7574
X-1.381 Y0.7109 Z3.7592
X-1.3839 Y0.7135 Z3.7616
X-1.3866 Y0.7159 Z3.7644
X-1.389 Y0.718 Z3.7676
X-1.391 Y0.7199 Z3.7711
X-1.3928 Y0.7215 Z3.775
X-1.3942 Y0.7227 Z3.7791
X-1.3952 Y0.7236 Z3.7835
X-1.3958 Y0.7242 Z3.7879
X-1.396 Y0.7243 Z3.7924
G00 Z4.4509
X-1.3546 Y-0.8022
Z3.8299
G01 Z3.7924 F79.8576
X-1.3545 Y-0.8019 Z3.7879
X-1.3543 Y-0.8012 Z3.7835
X-1.354 Y-0.7999 Z3.7791
X-1.3535 Y-0.7981 Z3.775
X-1.3529 Y-0.7958 Z3.7711
X-1.3521 Y-0.7931 Z3.7676
X-1.3513 Y-0.79 Z3.7644
X-1.3503 Y-0.7866 Z3.7616
X-1.3493 Y-0.7828 Z3.7592
X-1.3482 Y-0.7789 Z3.7574
X-1.3471 Y-0.7747 Z3.756
X-1.3459 Y-0.7704 Z3.7552
X-1.3447 Y-0.766 Z3.7549
G03 X-1.3443 Y-0.7351 I-0.0601 J0.0164
G01 X-1.3486 Y-0.7197
X-1.3514 Y-0.7084
X-1.354 Y-0.691
G02 X-1.4176 Y-0.4233 I3.6733 J1.0136
X-1.4351 Y0.1529 I4.5109 J0.4253
X-1.4137 Y0.4616 I1.0199 J0.0844
G03 X-1.3558 Y0.6033 I-1.3597 J0.638
G01 X-1.356 Y0.6215
Y0.6522
X-1.3556 Y0.672
G03 X-1.3681 Y0.6993 I-0.0375 J-0.0006
G01 X-1.3714 Y0.7023 Z3.7552
X-1.3747 Y0.7053 Z3.756
X-1.378 Y0.7082 Z3.7574
X-1.381 Y0.7109 Z3.7592
X-1.3839 Y0.7135 Z3.7616
X-1.3866 Y0.7159 Z3.7644
X-1.389 Y0.718 Z3.7676
X-1.391 Y0.7199 Z3.7711
X-1.3928 Y0.7215 Z3.775
X-1.3942 Y0.7227 Z3.7791
X-1.3952 Y0.7236 Z3.7835
X-1.3958 Y0.7242 Z3.7879
X-1.396 Y0.7243 Z3.7924
G00 Z4.4509
X-1.3724 Y-0.7563
Z3.8299
G01 Z3.7924 F79.8576
X-1.3723 Y-0.7561 Z3.7879
X-1.372 Y-0.7553 Z3.7835
X-1.3715 Y-0.7541 Z3.7791
X-1.3708 Y-0.7523 Z3.775
X-1.3699 Y-0.7502 Z3.7711
X-1.3689 Y-0.7476 Z3.7676
X-1.3677 Y-0.7446 Z3.7644
X-1.3663 Y-0.7413 Z3.7616
X-1.3648 Y-0.7377 Z3.7592
X-1.3633 Y-0.7339 Z3.7574
X-1.3616 Y-0.7299 Z3.756
X-1.36 Y-0.7258 Z3.7552
X-1.3582 Y-0.7216 Z3.7549
G03 X-1.354 Y-0.691 I-0.0577 J0.0236
G01 X-1.3548 Y-0.6859
X-1.3555 Y-0.6758
X-1.356 Y-0.6522
G03 X-1.3792 Y-0.5061 I-0.8711 J-0.0632
G02 X-1.4123 Y0.0245 I2.6624 J0.4325
X-1.4052 Y0.3791 I2.5956 J0.1253
X-1.3591 Y0.5278 I1.0822 J-0.2542
G01 X-1.3569 Y0.5428
X-1.356 Y0.5579
Y0.6215
G03 X-1.369 Y0.6486 I-0.0375 J-0.0013
G01 X-1.3724 Y0.6516 Z3.7552
X-1.3758 Y0.6545 Z3.756
X-1.3791 Y0.6573 Z3.7574
X-1.3822 Y0.66 Z3.7592
X-1.3851 Y0.6625 Z3.7616
X-1.3878 Y0.6648 Z3.7644
X-1.3903 Y0.6669 Z3.7676
X-1.3924 Y0.6688 Z3.7711
X-1.3941 Y0.6703 Z3.775
X-1.3956 Y0.6715 Z3.7791
X-1.3966 Y0.6724 Z3.7835
X-1.3972 Y0.6729 Z3.7879
X-1.3974 Y0.6731 Z3.7924
G00 Z4.4509
X-1.3837 Y-0.7141
Z3.8299
G01 Z3.7924 F79.8576
X-1.3836 Y-0.7139 Z3.7879
X-1.3832 Y-0.7132 Z3.7835
X-1.3825 Y-0.712 Z3.7791
X-1.3815 Y-0.7104 Z3.775
X-1.3804 Y-0.7084 Z3.7711
X-1.3789 Y-0.706 Z3.7676
X-1.3773 Y-0.7033 Z3.7644
X-1.3755 Y-0.7002 Z3.7616
X-1.3735 Y-0.6969 Z3.7592
X-1.3714 Y-0.6933 Z3.7574
X-1.3692 Y-0.6896 Z3.756
X-1.3669 Y-0.6858 Z3.7552
X-1.3646 Y-0.6819 Z3.7549
G03 X-1.356 Y-0.6522 I-0.0536 J0.0317
G01 Y-0.5735
G02 X-1.3878 Y-0.2123 I19.6042 J1.9083
X-1.3879 Y0.3201 I9.266 J0.2673
G03 X-1.3552 Y0.4767 I-2.4162 J0.5856
G01 X-1.356 Y0.5579
G03 X-1.369 Y0.585 I-0.0375 J-0.0013
G01 X-1.3724 Y0.5879 Z3.7552
X-1.3758 Y0.5908 Z3.756
X-1.3791 Y0.5936 Z3.7574
X-1.3822 Y0.5963 Z3.7592
X-1.3851 Y0.5989 Z3.7616
X-1.3878 Y0.6012 Z3.7644
X-1.3903 Y0.6033 Z3.7676
X-1.3924 Y0.6051 Z3.7711
X-1.3941 Y0.6066 Z3.775
X-1.3956 Y0.6079 Z3.7791
X-1.3966 Y0.6087 Z3.7835
X-1.3972 Y0.6093 Z3.7879
X-1.3974 Y0.6094 Z3.7924
G00 Z4.4509
X-1.3839 Y-0.6354
Z3.8299
G01 Z3.7924 F79.8576
X-1.3837 Y-0.6351 Z3.7879
X-1.3833 Y-0.6344 Z3.7835
X-1.3826 Y-0.6333 Z3.7791
X-1.3817 Y-0.6317 Z3.775
X-1.3805 Y-0.6297 Z3.7711
X-1.3791 Y-0.6273 Z3.7676
X-1.3774 Y-0.6245 Z3.7644
X-1.3756 Y-0.6215 Z3.7616
X-1.3736 Y-0.6181 Z3.7592
X-1.3715 Y-0.6146 Z3.7574
X-1.3693 Y-0.6109 Z3.756
X-1.367 Y-0.607 Z3.7552
X-1.3647 Y-0.6031 Z3.7549
G03 X-1.356 Y-0.5735 I-0.0536 J0.0318
G01 Y-0.4161
G02 X-1.3678 Y0.2493 I10.5774 J0.5198
G03 X-1.356 Y0.358 I-2.3309 J0.3079
G01 Y0.4768
G03 X-1.369 Y0.5039 I-0.0375 J-0.0013
G01 X-1.3724 Y0.5069 Z3.7552
X-1.3758 Y0.5098 Z3.756
X-1.3791 Y0.5126 Z3.7574
X-1.3822 Y0.5153 Z3.7592
X-1.3851 Y0.5178 Z3.7616
X-1.3878 Y0.5202 Z3.7644
X-1.3903 Y0.5223 Z3.7676
X-1.3924 Y0.5241 Z3.7711
X-1.3941 Y0.5256 Z3.775
X-1.3956 Y0.5268 Z3.7791
X-1.3966 Y0.5277 Z3.7835
X-1.3972 Y0.5282 Z3.7879
X-1.3974 Y0.5284 Z3.7924
G00 Z4.4509
X-1.3839 Y-0.478
Z3.8299
G01 Z3.7924 F79.8576
X-1.3837 Y-0.4777 Z3.7879
X-1.3833 Y-0.477 Z3.7835
X-1.3826 Y-0.4759 Z3.7791
X-1.3817 Y-0.4743 Z3.775
X-1.3805 Y-0.4722 Z3.7711
X-1.3791 Y-0.4698 Z3.7676
X-1.3774 Y-0.4671 Z3.7644
X-1.3756 Y-0.464 Z3.7616
X-1.3736 Y-0.4607 Z3.7592
X-1.3715 Y-0.4572 Z3.7574
X-1.3693 Y-0.4534 Z3.756
X-1.367 Y-0.4496 Z3.7552
X-1.3647 Y-0.4457 Z3.7549
G03 X-1.356 Y-0.4161 I-0.0536 J0.0318
G01 Y0.358
G03 X-1.369 Y0.3851 I-0.0375 J-0.0013
G01 X-1.3724 Y0.3881 Z3.7552
X-1.3758 Y0.391 Z3.756
X-1.3791 Y0.3938 Z3.7574
X-1.3822 Y0.3965 Z3.7592
X-1.3851 Y0.399 Z3.7616
X-1.3878 Y0.4014 Z3.7644
X-1.3903 Y0.4034 Z3.7676
X-1.3924 Y0.4053 Z3.7711
X-1.3941 Y0.4068 Z3.775
X-1.3956 Y0.408 Z3.7791
X-1.3966 Y0.4089 Z3.7835
X-1.3972 Y0.4094 Z3.7879
X-1.3974 Y0.4096 Z3.7924
G00 Z4.4509
X1.0947 Y0.9152
Z3.8299
G01 Z3.7924 F79.8576
X1.0949 Y0.915 Z3.7879
X1.0955 Y0.9145 Z3.7835
X1.0966 Y0.9137 Z3.7791
X1.0981 Y0.9126 Z3.775
X1.0999 Y0.9112 Z3.7711
X1.1022 Y0.9095 Z3.7676
X1.1047 Y0.9075 Z3.7644
X1.1076 Y0.9054 Z3.7616
X1.1107 Y0.903 Z3.7592
X1.1139 Y0.9005 Z3.7574
X1.1174 Y0.8979 Z3.756
X1.1209 Y0.8952 Z3.7552
X1.1245 Y0.8925 Z3.7549
G03 X1.153 Y0.8805 I0.0377 J0.0496
G02 X1.193 Y0.8741 I-0.0207 J-0.2571
G03 X1.3186 Y0.8511 I0.6409 J3.1378
G02 X1.5426 Y0.5988 I-0.0934 J-0.3085
X1.5698 Y0.2904 I-1.1259 J-0.2546
X1.5719 Y0.0685 I-5.8559 J-0.1662
G01 Y-0.1534
Y-0.5084
G02 X1.3597 Y-0.8129 I-0.3017 J-0.016
G03 X1.2659 Y-0.8422 I0.8593 J-2.9175
G01 X1.2531 Y-0.8496
G02 X1.1868 Y-0.8756 I-0.1077 J0.1775
G01 X1.1826 Y-0.8772
X1.1787 Y-0.8792
X1.1751 Y-0.8817
X1.1717 Y-0.8847
X1.1688 Y-0.8879
X1.1662 Y-0.8915
X1.1641 Y-0.8954
X1.1622 Y-0.8995 Z3.7552
X1.1603 Y-0.9035 Z3.756
X1.1584 Y-0.9074 Z3.7574
X1.1566 Y-0.9112 Z3.7592
X1.155 Y-0.9147 Z3.7616
X1.1534 Y-0.9179 Z3.7644
X1.1521 Y-0.9208 Z3.7676
X1.1509 Y-0.9233 Z3.7711
X1.1499 Y-0.9254 Z3.775
X1.1491 Y-0.9271 Z3.7791
X1.1485 Y-0.9283 Z3.7835
X1.1481 Y-0.9291 Z3.7879
X1.148 Y-0.9293 Z3.7924
G00 Z4.4509
X1.1407 Y0.9173
Z3.8299
G01 Z3.7924 F79.8576
X1.1409 Y0.9171 Z3.7879
X1.1414 Y0.9165 Z3.7835
X1.1424 Y0.9155 Z3.7791
X1.1437 Y0.9142 Z3.775
X1.1453 Y0.9125 Z3.7711
X1.1472 Y0.9105 Z3.7676
X1.1494 Y0.9082 Z3.7644
X1.1519 Y0.9056 Z3.7616
X1.1546 Y0.9028 Z3.7592
X1.1575 Y0.8999 Z3.7574
X1.1605 Y0.8967 Z3.756
X1.1635 Y0.8935 Z3.7552
X1.1667 Y0.8903 Z3.7549
G03 X1.193 Y0.874 I0.0449 J0.0432
G01 X1.2093 Y0.8695
X1.2195 Y0.8658
X1.2318 Y0.8606
G02 X1.4236 Y0.7533 I-0.1213 J-0.4422
X1.5366 Y0.4701 I-0.354 J-0.3055
X1.5481 Y0.0268 I-3.7378 J-0.3183
G01 X1.5494 Y-0.1508
Y-0.4614
G02 X1.3358 Y-0.7864 I-0.3199 J-0.0225
G01 X1.3219 Y-0.7945
X1.3088 Y-0.8035
X1.2968 Y-0.814
G02 X1.2531 Y-0.8496 I-0.1573 J0.1486
G03 X1.2371 Y-0.8751 I0.0211 J-0.031
G01 X1.2365 Y-0.8796 Z3.7552
X1.2358 Y-0.884 Z3.756
X1.2352 Y-0.8883 Z3.7574
X1.2346 Y-0.8923 Z3.7592
X1.234 Y-0.8962 Z3.7616
X1.2335 Y-0.8997 Z3.7644
X1.233 Y-0.9029 Z3.7676
X1.2326 Y-0.9056 Z3.7711
X1.2322 Y-0.908 Z3.775
X1.232 Y-0.9098 Z3.7791
X1.2318 Y-0.9111 Z3.7835
X1.2317 Y-0.9119 Z3.7879
X1.2316 Y-0.9122 Z3.7924
G00 Z4.4509
X1.1858 Y0.9105
Z3.8299
G01 Z3.7924 F79.8576
X1.186 Y0.9103 Z3.7879
X1.1864 Y0.9096 Z3.7835
X1.1872 Y0.9086 Z3.7791
X1.1883 Y0.9071 Z3.775
X1.1897 Y0.9052 Z3.7711
X1.1914 Y0.9029 Z3.7676
X1.1932 Y0.9003 Z3.7644
X1.1953 Y0.8974 Z3.7616
X1.1976 Y0.8943 Z3.7592
X1.2001 Y0.891 Z3.7574
X1.2026 Y0.8875 Z3.756
X1.2052 Y0.8839 Z3.7552
X1.2079 Y0.8802 Z3.7549
G03 X1.2318 Y0.8606 I0.0503 J0.0368
G02 X1.2665 Y0.8406 I-0.0487 J-0.1246
X1.4314 Y0.6942 I-0.2819 J-0.4837
X1.52 Y0.3553 I-0.5484 J-0.3244
X1.5269 Y-0.0441 I-6.2798 J-0.3081
G01 Y-0.3103
G02 X1.5171 Y-0.5316 I-1.1497 J-0.0597
X1.3463 Y-0.7497 I-0.3561 J0.1029
G01 X1.3356 Y-0.7626
X1.3261 Y-0.7759
G02 X1.2968 Y-0.814 I-0.1741 J0.1033
G03 X1.2869 Y-0.8424 I0.0274 J-0.0256
G01 X1.2872 Y-0.8469 Z3.7552
X1.2875 Y-0.8513 Z3.756
X1.2879 Y-0.8557 Z3.7574
X1.2882 Y-0.8598 Z3.7592
X1.2884 Y-0.8636 Z3.7616
X1.2887 Y-0.8672 Z3.7644
X1.2889 Y-0.8704 Z3.7676
X1.2892 Y-0.8732 Z3.7711
X1.2893 Y-0.8755 Z3.775
X1.2895 Y-0.8774 Z3.7791
X1.2896 Y-0.8787 Z3.7835
Y-0.8795 Z3.7879
Y-0.8798 Z3.7924
G00 Z4.4509
X1.2346 Y0.9005
Z3.8299
G01 Z3.7924 F79.8576
X1.2347 Y0.9002 Z3.7879
X1.235 Y0.8995 Z3.7835
X1.2355 Y0.8982 Z3.7791
X1.2361 Y0.8965 Z3.775
X1.237 Y0.8943 Z3.7711
X1.238 Y0.8917 Z3.7676
X1.2392 Y0.8887 Z3.7644
X1.2405 Y0.8854 Z3.7616
X1.242 Y0.8818 Z3.7592
X1.2435 Y0.878 Z3.7574
X1.2451 Y0.874 Z3.756
X1.2467 Y0.8698 Z3.7552
X1.2484 Y0.8656 Z3.7549
G03 X1.2666 Y0.8406 I0.0579 J0.023
G02 X1.3105 Y0.7985 I-0.1332 J-0.1832
X1.4916 Y0.4049 I-0.4025 J-0.4236
X1.5044 Y-0.0828 I-5.0698 J-0.3772
G01 Y-0.3047
G02 X1.4874 Y-0.5251 I-0.8013 J-0.0491
X1.3585 Y-0.7072 I-0.4124 J0.1553
G01 X1.3494 Y-0.7246
X1.3419 Y-0.7421
X1.3322 Y-0.7646
X1.3296 Y-0.7703
X1.3261 Y-0.7759
G03 X1.3229 Y-0.8058 I0.0326 J-0.0186
G01 X1.3243 Y-0.8101 Z3.7552
X1.3256 Y-0.8143 Z3.756
X1.3269 Y-0.8184 Z3.7574
X1.3282 Y-0.8224 Z3.7592
X1.3293 Y-0.8261 Z3.7616
X1.3304 Y-0.8295 Z3.7644
X1.3314 Y-0.8325 Z3.7676
X1.3322 Y-0.8352 Z3.7711
X1.3329 Y-0.8374 Z3.775
X1.3335 Y-0.8392 Z3.7791
X1.3339 Y-0.8405 Z3.7835
X1.3341 Y-0.8413 Z3.7879
X1.3342 Y-0.8415 Z3.7924
G00 Z4.4509
X1.2914 Y0.8636
Z3.8299
G01 Z3.7924 F79.8576
Y0.8634 Z3.7879
X1.2915 Y0.8626 Z3.7835
X1.2918 Y0.8612 Z3.7791
X1.2921 Y0.8594 Z3.775
X1.2925 Y0.8571 Z3.7711
X1.293 Y0.8544 Z3.7676
X1.2935 Y0.8512 Z3.7644
X1.2941 Y0.8477 Z3.7616
X1.2948 Y0.8439 Z3.7592
X1.2955 Y0.8398 Z3.7574
X1.2963 Y0.8355 Z3.756
X1.297 Y0.8312 Z3.7552
X1.2978 Y0.8267 Z3.7549
G03 X1.3105 Y0.7985 I0.0614 J0.0107
G02 X1.3304 Y0.7686 I-0.1878 J-0.1461
X1.4347 Y0.5567 I-1.0133 J-0.6305
X1.4788 Y0.1615 I-1.2463 J-0.3391
Y-0.4153 I-13.5232 J-0.2894
X1.3739 Y-0.6513 I-0.4087 J0.0404
G03 X1.3514 Y-0.7084 I0.1192 J-0.0799
G01 X1.3486 Y-0.7197
X1.3443 Y-0.7351
X1.3419 Y-0.7421
G03 X1.3454 Y-0.772 I0.0359 J-0.0109
G01 X1.3477 Y-0.7759 Z3.7552
X1.35 Y-0.7797 Z3.756
X1.3521 Y-0.7835 Z3.7574
X1.3542 Y-0.787 Z3.7592
X1.3562 Y-0.7904 Z3.7616
X1.358 Y-0.7934 Z3.7644
X1.3596 Y-0.7962 Z3.7676
X1.361 Y-0.7986 Z3.7711
X1.3622 Y-0.8006 Z3.775
X1.3632 Y-0.8022 Z3.7791
X1.3638 Y-0.8034 Z3.7835
X1.3643 Y-0.8041 Z3.7879
X1.3644 Y-0.8043 Z3.7924
G00 Z4.4509
X1.3296 Y0.8364
Z3.8299
G01 Z3.7924 F79.8576
Y0.8362 Z3.7879
X1.3295 Y0.8354 Z3.7835
X1.3294 Y0.834 Z3.7791
X1.3292 Y0.8322 Z3.775
X1.3289 Y0.8298 Z3.7711
X1.3287 Y0.8271 Z3.7676
X1.3283 Y0.8239 Z3.7644
X1.328 Y0.8203 Z3.7616
X1.3276 Y0.8165 Z3.7592
X1.3272 Y0.8124 Z3.7574
X1.3267 Y0.8081 Z3.756
X1.3263 Y0.8036 Z3.7552
X1.3258 Y0.7991 Z3.7549
G03 X1.3304 Y0.7686 I0.062 J-0.0063
G02 X1.3472 Y0.7247 I-0.1851 J-0.096
X1.4191 Y0.5203 I-4.6703 J-1.7578
X1.4567 Y0.1238 I-1.5286 J-0.3449
X1.4551 Y-0.4085 I-8.3098 J-0.2417
X1.3638 Y-0.6245 I-0.5783 J0.1172
G01 X1.3601 Y-0.6405
X1.3569 Y-0.6561
X1.3556 Y-0.6719
G03 X1.3681 Y-0.6992 I0.0375 J0.0006
G01 X1.3714 Y-0.7023 Z3.7552
X1.3747 Y-0.7052 Z3.756
X1.378 Y-0.7081 Z3.7574
X1.381 Y-0.7109 Z3.7592
X1.3839 Y-0.7135 Z3.7616
X1.3866 Y-0.7158 Z3.7644
X1.389 Y-0.718 Z3.7676
X1.391 Y-0.7198 Z3.7711
X1.3928 Y-0.7214 Z3.775
X1.3942 Y-0.7226 Z3.7791
X1.3952 Y-0.7235 Z3.7835
X1.3958 Y-0.7241 Z3.7879
X1.396 Y-0.7243 Z3.7924
G00 Z4.4509
X1.3575 Y0.7918
Z3.8299
G01 Z3.7924 F79.8576
X1.3574 Y0.7916 Z3.7879
X1.3572 Y0.7908 Z3.7835
X1.3568 Y0.7895 Z3.7791
X1.3563 Y0.7877 Z3.775
X1.3557 Y0.7854 Z3.7711
X1.355 Y0.7827 Z3.7676
X1.3542 Y0.7796 Z3.7644
X1.3532 Y0.7762 Z3.7616
X1.3522 Y0.7725 Z3.7592
X1.3511 Y0.7685 Z3.7574
X1.35 Y0.7643 Z3.756
X1.3488 Y0.76 Z3.7552
X1.3476 Y0.7556 Z3.7549
G03 X1.3471 Y0.7247 I0.0601 J-0.0164
G02 X1.3549 Y0.6842 I-0.1752 J-0.0545
G03 X1.3873 Y0.5502 I0.8471 J0.1337
G02 X1.4339 Y0.1104 I-1.6048 J-0.3925
X1.4324 Y-0.3776 I-6.8328 J-0.2232
X1.3593 Y-0.5857 I-0.74 J0.1431
G01 X1.3572 Y-0.6039
X1.356 Y-0.6215
Y-0.6522
X1.3556 Y-0.6719
G03 X1.3681 Y-0.6992 I0.0375 J0.0006
G01 X1.3714 Y-0.7023 Z3.7552
X1.3747 Y-0.7052 Z3.756
X1.378 Y-0.7081 Z3.7574
X1.381 Y-0.7109 Z3.7592
X1.3839 Y-0.7135 Z3.7616
X1.3866 Y-0.7158 Z3.7644
X1.389 Y-0.718 Z3.7676
X1.391 Y-0.7198 Z3.7711
X1.3928 Y-0.7214 Z3.775
X1.3942 Y-0.7226 Z3.7791
X1.3952 Y-0.7235 Z3.7835
X1.3958 Y-0.7241 Z3.7879
X1.396 Y-0.7243 Z3.7924
G00 Z4.4509
X1.3781 Y0.748
Z3.8299
G01 Z3.7924 F79.8576
X1.378 Y0.7478 Z3.7879
X1.3777 Y0.747 Z3.7835
X1.3771 Y0.7458 Z3.7791
X1.3762 Y0.7442 Z3.775
X1.3752 Y0.7421 Z3.7711
X1.3739 Y0.7396 Z3.7676
X1.3725 Y0.7367 Z3.7644
X1.3709 Y0.7335 Z3.7616
X1.3692 Y0.7301 Z3.7592
X1.3673 Y0.7264 Z3.7574
X1.3654 Y0.7225 Z3.756
X1.3634 Y0.7185 Z3.7552
X1.3614 Y0.7145 Z3.7549
G03 X1.3549 Y0.6842 I0.0558 J-0.0278
G01 X1.3555 Y0.6758
X1.356 Y0.6522
Y0.646
G03 X1.3799 Y0.4871 I0.9555 J0.0628
G02 X1.4123 Y-0.0435 I-2.7436 J-0.4337
X1.4018 Y-0.3979 I-2.0769 J-0.116
X1.3593 Y-0.527 I-1.6765 J0.4802
G01 X1.3569 Y-0.5424
X1.356 Y-0.5578
Y-0.6215
G03 X1.369 Y-0.6486 I0.0375 J0.0013
G01 X1.3724 Y-0.6516 Z3.7552
X1.3758 Y-0.6545 Z3.756
X1.3791 Y-0.6573 Z3.7574
X1.3822 Y-0.66 Z3.7592
X1.3851 Y-0.6625 Z3.7616
X1.3878 Y-0.6649 Z3.7644
X1.3903 Y-0.667 Z3.7676
X1.3924 Y-0.6688 Z3.7711
X1.3941 Y-0.6703 Z3.775
X1.3956 Y-0.6715 Z3.7791
X1.3966 Y-0.6724 Z3.7835
X1.3972 Y-0.6729 Z3.7879
X1.3974 Y-0.6731 Z3.7924
G00 Z4.4509
X1.3837 Y0.708
Z3.8299
G01 Z3.7924 F79.8576
X1.3836 Y0.7077 Z3.7879
X1.3832 Y0.707 Z3.7835
X1.3825 Y0.7059 Z3.7791
X1.3816 Y0.7043 Z3.775
X1.3804 Y0.7022 Z3.7711
X1.3789 Y0.6998 Z3.7676
X1.3773 Y0.6971 Z3.7644
X1.3755 Y0.694 Z3.7616
X1.3735 Y0.6907 Z3.7592
X1.3714 Y0.6871 Z3.7574
X1.3692 Y0.6834 Z3.756
X1.3669 Y0.6796 Z3.7552
X1.3646 Y0.6757 Z3.7549
G03 X1.356 Y0.646 I0.0536 J-0.0317
G01 Y0.5622
G02 X1.3877 Y0.1946 I-22.3394 J-2.1139
X1.3896 Y-0.2935 I-10.9355 J-0.2849
X1.3566 Y-0.4652 I-1.8413 J0.2649
G01 X1.356 Y-0.4773
Y-0.5578
G03 X1.369 Y-0.5849 I0.0375 J0.0013
G01 X1.3724 Y-0.5878 Z3.7552
X1.3758 Y-0.5907 Z3.756
X1.3791 Y-0.5936 Z3.7574
X1.3822 Y-0.5963 Z3.7592
X1.3851 Y-0.5988 Z3.7616
X1.3878 Y-0.6011 Z3.7644
X1.3903 Y-0.6032 Z3.7676
X1.3924 Y-0.605 Z3.7711
X1.3941 Y-0.6066 Z3.775
X1.3956 Y-0.6078 Z3.7791
X1.3966 Y-0.6087 Z3.7835
X1.3972 Y-0.6092 Z3.7879
X1.3974 Y-0.6094 Z3.7924
G00 Z4.4509
X1.3839 Y0.6241
Z3.8299
G01 Z3.7924 F79.8576
X1.3837 Y0.6239 Z3.7879
X1.3833 Y0.6232 Z3.7835
X1.3826 Y0.622 Z3.7791
X1.3817 Y0.6204 Z3.775
X1.3805 Y0.6184 Z3.7711
X1.3791 Y0.616 Z3.7676
X1.3774 Y0.6133 Z3.7644
X1.3756 Y0.6102 Z3.7616
X1.3736 Y0.6069 Z3.7592
X1.3715 Y0.6033 Z3.7574
X1.3693 Y0.5996 Z3.756
X1.367 Y0.5958 Z3.7552
X1.3647 Y0.5919 Z3.7549
G03 X1.356 Y0.5622 I0.0536 J-0.0318
G01 Y0.3936
G02 X1.3668 Y-0.2718 I-9.3401 J-0.4847
G03 X1.3558 Y-0.3584 I0.9946 J-0.1702
G01 X1.356 Y-0.4773
G03 X1.369 Y-0.5044 I0.0375 J0.0013
G01 X1.3724 Y-0.5073 Z3.7552
X1.3758 Y-0.5102 Z3.756
X1.3791 Y-0.5131 Z3.7574
X1.3822 Y-0.5158 Z3.7592
X1.3851 Y-0.5183 Z3.7616
X1.3878 Y-0.5206 Z3.7644
X1.3903 Y-0.5227 Z3.7676
X1.3924 Y-0.5245 Z3.7711
X1.3941 Y-0.5261 Z3.775
X1.3956 Y-0.5273 Z3.7791
X1.3966 Y-0.5281 Z3.7835
X1.3972 Y-0.5287 Z3.7879
X1.3974 Y-0.5289 Z3.7924
G00 Z4.4509
X1.3839 Y0.4555
Z3.8299
G01 Z3.7924 F79.8576
X1.3837 Y0.4552 Z3.7879
X1.3833 Y0.4545 Z3.7835
X1.3826 Y0.4534 Z3.7791
X1.3817 Y0.4518 Z3.775
X1.3805 Y0.4498 Z3.7711
X1.3791 Y0.4474 Z3.7676
X1.3774 Y0.4446 Z3.7644
X1.3756 Y0.4415 Z3.7616
X1.3736 Y0.4382 Z3.7592
X1.3715 Y0.4347 Z3.7574
X1.3693 Y0.4309 Z3.756
X1.367 Y0.4271 Z3.7552
X1.3647 Y0.4232 Z3.7549
G03 X1.356 Y0.3936 I0.0536 J-0.0318
G01 Y-0.3584
X1.3567 Y-0.362 Z3.7552
X1.3573 Y-0.3656 Z3.7558
X1.3579 Y-0.369 Z3.7569
X1.3597 Y-0.3725 Z3.7587
X1.3613 Y-0.3758 Z3.761
X1.3628 Y-0.3787 Z3.7638
X1.3646 Y-0.3807 Z3.7669
X1.3662 Y-0.3824 Z3.7703
X1.3674 Y-0.3837 Z3.7739
X1.3683 Y-0.3847 Z3.7778
X1.3688 Y-0.3853 Z3.7818
X1.369 Y-0.3855 Z3.7859
G00 Z4.4509
X-1.5131 Y-1.1914
Z3.32
G01 Z3.2825 F79.8576
X-1.513 Y-1.1911 Z3.278
X-1.5128 Y-1.1903 Z3.2736
X-1.5125 Y-1.189 Z3.2692
X-1.512 Y-1.1872 Z3.2651
X-1.5115 Y-1.185 Z3.2612
X-1.5108 Y-1.1823 Z3.2577
X-1.51 Y-1.1792 Z3.2545
X-1.5091 Y-1.1757 Z3.2517
X-1.5081 Y-1.1719 Z3.2493
X-1.5071 Y-1.1679 Z3.2475
X-1.506 Y-1.1638 Z3.2461
X-1.5049 Y-1.1594 Z3.2453
X-1.5038 Y-1.1551 Z3.245
G03 X-1.4744 Y-0.9509 I-0.9274 J0.2376
G01 Y-0.9454
G02 X-1.6126 Y-0.7808 I0.1079 J0.2307
X-1.6377 Y-0.4724 I1.0485 J0.2405
G01 X-1.6393 Y-0.4279
Y-0.3836
X-1.6394 Y-0.2505
Y0.6814
G02 X-1.5338 Y0.8648 I0.2091 J0.0017
G01 X-1.4943 Y0.8851
X-1.4525 Y0.8998
G02 X-1.1437 Y0.9222 I0.2396 J-1.1595
G01 X-1.0993 Y0.9237
X-1.0105 Y0.9238
X-0.6555 Y0.9239
X0.5425 Y0.924
X1.3856 Y0.9241
G02 X1.5737 Y0.8289 I0.0179 J-0.1979
X1.6354 Y0.574 I-0.3898 J-0.2292
X1.6394 Y0.2189 I-6.7649 J-0.2549
G01 Y-0.0917
Y-0.7129
G02 X1.5071 Y-0.8798 I-0.2214 J0.0396
X1.2463 Y-0.9213 I-0.225 J0.5741
X0.9357 Y-0.9239 I-0.223 J8.0137
G01 X0.3588 Y-0.924
X-1.3274 Y-0.9242
G02 X-1.55 Y-0.8055 I-0.0189 J0.2328
G01 X-1.5713 Y-0.7666
G02 X-1.6142 Y-0.4613 I0.71 J0.2554
X-1.6169 Y-0.2394 I4.3775 J0.1645
G01 Y0.0269
Y0.6037
G02 X-1.4624 Y0.8506 I0.2494 J0.0157
X-1.2027 Y0.8978 I0.2351 J-0.5565
G01 X-1.1583 Y0.9
G02 X-0.8921 Y0.9014 I0.2206 J-17.3058
G01 X-0.3152
X0.8385 Y0.9016
X1.3266
G02 X1.5693 Y0.7407 I0.0093 J-0.2495
X1.6123 Y0.5246 I-0.5061 J-0.2131
X1.6169 Y0.1253 I-8.324 J-0.2965
G01 Y-0.4516
Y-0.629
G02 X1.4392 Y-0.8605 I-0.2542 J0.0113
X1.2217 Y-0.8976 I-0.2088 J0.5687
X0.9111 Y-0.9014 I-0.2414 J7.0605
G01 X0.5561
X-0.0651 Y-0.9015
X-1.3076 Y-0.9017
G02 X-1.5446 Y-0.7273 I0.0173 J0.2718
X-1.5905 Y-0.467 I0.6058 J0.241
X-1.594 Y-0.2895 I2.9101 J0.1463
G01 X-1.5943 Y-0.2452
X-1.5944 Y-0.1564
Y0.1098
Y0.5536
G02 X-1.412 Y0.8307 I0.2785 J0.0152
X-1.1868 Y0.8744 I0.2312 J-0.5888
X-1.1193 Y0.881 I0.0536 J-0.2
G01 X1.1193
X1.1305 Y0.8809
X1.153 Y0.8805
X1.1974 Y0.8797
X1.2861 Y0.8792
G02 X1.5523 Y0.681 I-0.0012 J-0.2795
X1.5916 Y0.4192 I-0.7324 J-0.2438
X1.5944 Y0.1086 I-9.7611 J-0.2424
G01 Y-0.2908
Y-0.557
G02 X1.486 Y-0.789 I-0.2719 J-0.0142
X1.2005 Y-0.8725 I-0.2748 J0.4094
G01 X1.1936 Y-0.8746
X1.1868 Y-0.8757
G02 X1.1193 Y-0.881 I-0.0564 J0.286
G01 X-1.1193
X-1.1305 Y-0.8809
X-1.153 Y-0.8805
G02 X-1.3297 Y-0.8685 I-0.0348 J0.7947
X-1.5349 Y-0.6523 I0.0953 J0.296
X-1.5694 Y-0.345 I0.9396 J0.2608
X-1.5719 Y-0.0788 I6.98 J0.1996
G01 Y0.2762
Y0.4981
G02 X-1.4098 Y0.7915 I0.3003 J0.0256
X-1.2778 Y0.8369 I0.228 J-0.4475
G01 X-1.2651 Y0.8429
X-1.2529 Y0.8498
G02 X-1.1868 Y0.8756 I0.1076 J-0.1781
G01 X-1.1826 Y0.8772
X-1.1787 Y0.8792
X-1.1751 Y0.8817
X-1.1717 Y0.8847
X-1.1688 Y0.8879
X-1.1662 Y0.8915
X-1.1641 Y0.8954
X-1.1622 Y0.8995 Z3.2453
X-1.1603 Y0.9035 Z3.2461
X-1.1584 Y0.9074 Z3.2475
X-1.1566 Y0.9112 Z3.2493
X-1.155 Y0.9147 Z3.2517
X-1.1534 Y0.9179 Z3.2545
X-1.1521 Y0.9208 Z3.2577
X-1.1509 Y0.9233 Z3.2612
X-1.1499 Y0.9254 Z3.2651
X-1.1491 Y0.9271 Z3.2692
X-1.1485 Y0.9283 Z3.2736
X-1.1481 Y0.9291 Z3.278
X-1.148 Y0.9293 Z3.2825
G00 Z4.4509
X-1.0947 Y-0.9152
Z3.32
G01 Z3.2825 F79.8576
X-1.0949 Y-0.915 Z3.278
X-1.0955 Y-0.9145 Z3.2736
X-1.0966 Y-0.9137 Z3.2692
X-1.0981 Y-0.9126 Z3.2651
X-1.0999 Y-0.9112 Z3.2612
X-1.1022 Y-0.9095 Z3.2577
X-1.1047 Y-0.9075 Z3.2545
X-1.1076 Y-0.9054 Z3.2517
X-1.1107 Y-0.903 Z3.2493
X-1.1139 Y-0.9005 Z3.2475
X-1.1174 Y-0.8979 Z3.2461
X-1.1209 Y-0.8952 Z3.2453
X-1.1245 Y-0.8925 Z3.245
G03 X-1.153 Y-0.8805 I-0.0377 J-0.0496
G02 X-1.193 Y-0.8741 I0.0207 J0.2571
X-1.3613 Y-0.8205 I0.0691 J0.5077
X-1.5248 Y-0.5672 I0.1981 J0.3073
X-1.5476 Y-0.2582 I1.3762 J0.2568
X-1.5494 Y-0.0363 I7.0299 J0.1675
G01 Y0.23
Y0.4518
G02 X-1.469 Y0.6986 I0.3343 J0.0276
X-1.3214 Y0.7937 I0.2975 J-0.2997
G01 X-1.3088 Y0.8034
X-1.2971 Y0.8138
G02 X-1.2529 Y0.8498 I0.1581 J-0.1491
G03 X-1.2369 Y0.8752 I-0.0211 J0.031
G01 X-1.2363 Y0.8797 Z3.2453
X-1.2356 Y0.8841 Z3.2461
X-1.235 Y0.8884 Z3.2475
X-1.2344 Y0.8925 Z3.2493
X-1.2338 Y0.8963 Z3.2517
X-1.2333 Y0.8998 Z3.2545
X-1.2328 Y0.903 Z3.2577
X-1.2324 Y0.9058 Z3.2612
X-1.232 Y0.9081 Z3.2651
X-1.2318 Y0.9099 Z3.2692
X-1.2316 Y0.9113 Z3.2736
X-1.2314 Y0.9121 Z3.278
Y0.9123 Z3.2825
G00 Z4.4509
X-1.1407 Y-0.9173
Z3.32
G01 Z3.2825 F79.8576
X-1.1409 Y-0.9171 Z3.278
X-1.1414 Y-0.9165 Z3.2736
X-1.1424 Y-0.9155 Z3.2692
X-1.1437 Y-0.9142 Z3.2651
X-1.1453 Y-0.9125 Z3.2612
X-1.1472 Y-0.9105 Z3.2577
X-1.1494 Y-0.9082 Z3.2545
X-1.1519 Y-0.9056 Z3.2517
X-1.1546 Y-0.9028 Z3.2493
X-1.1575 Y-0.8999 Z3.2475
X-1.1605 Y-0.8967 Z3.2461
X-1.1635 Y-0.8935 Z3.2453
X-1.1667 Y-0.8903 Z3.245
G03 X-1.193 Y-0.874 I-0.0449 J-0.0432
G02 X-1.2453 Y-0.8546 I0.0598 J0.2413
X-1.4221 Y-0.7239 I0.1868 J0.4378
X-1.5192 Y-0.3882 I0.4835 J0.3217
X-1.5269 Y0.0111 I5.6151 J0.3076
G01 Y0.2329
G02 X-1.5229 Y0.499 I3.1971 J0.0844
X-1.3594 Y0.7392 I0.3285 J-0.0479
G01 X-1.347 Y0.7504
X-1.3357 Y0.7625
X-1.3261 Y0.7759
G02 X-1.2971 Y0.8138 I0.1745 J-0.1035
G03 X-1.2871 Y0.8421 I-0.0274 J0.0256
G01 X-1.2875 Y0.8466 Z3.2453
X-1.2878 Y0.8511 Z3.2461
X-1.2881 Y0.8554 Z3.2475
X-1.2884 Y0.8595 Z3.2493
X-1.2887 Y0.8634 Z3.2517
X-1.289 Y0.8669 Z3.2545
X-1.2892 Y0.8701 Z3.2577
X-1.2894 Y0.8729 Z3.2612
X-1.2896 Y0.8752 Z3.2651
X-1.2897 Y0.8771 Z3.2692
X-1.2898 Y0.8784 Z3.2736
X-1.2899 Y0.8792 Z3.278
Y0.8795 Z3.2825
G00 Z4.4509
X-1.2078 Y-0.9112
Z3.32
G01 Z3.2825 F79.8576
X-1.208 Y-0.911 Z3.278
X-1.2083 Y-0.9103 Z3.2736
X-1.2089 Y-0.9091 Z3.2692
X-1.2098 Y-0.9074 Z3.2651
X-1.2108 Y-0.9053 Z3.2612
X-1.2121 Y-0.9028 Z3.2577
X-1.2136 Y-0.9 Z3.2545
X-1.2152 Y-0.8968 Z3.2517
X-1.2169 Y-0.8933 Z3.2493
X-1.2188 Y-0.8897 Z3.2475
X-1.2208 Y-0.8858 Z3.2461
X-1.2228 Y-0.8818 Z3.2453
X-1.2248 Y-0.8778 Z3.245
G03 X-1.2453 Y-0.8546 I-0.0555 J-0.0283
G02 X-1.2891 Y-0.8218 I0.1152 J0.1997
X-1.4897 Y-0.4404 I0.3256 J0.4147
X-1.5031 Y-0.0416 I3.036 J0.3016
X-1.5024 Y0.4465 I12.9577 J0.225
X-1.3711 Y0.6937 I0.3654 J-0.0356
G01 X-1.3593 Y0.7087
X-1.3493 Y0.7248
X-1.3419 Y0.7421
X-1.3322 Y0.7646
X-1.3296 Y0.7703
X-1.3261 Y0.7759
G03 X-1.3229 Y0.8058 I-0.0326 J0.0186
G01 X-1.3243 Y0.8101 Z3.2453
X-1.3256 Y0.8143 Z3.2461
X-1.3269 Y0.8184 Z3.2475
X-1.3282 Y0.8224 Z3.2493
X-1.3293 Y0.8261 Z3.2517
X-1.3304 Y0.8295 Z3.2545
X-1.3314 Y0.8325 Z3.2577
X-1.3322 Y0.8352 Z3.2612
X-1.3329 Y0.8374 Z3.2651
X-1.3335 Y0.8392 Z3.2692
X-1.3339 Y0.8405 Z3.2736
X-1.3341 Y0.8413 Z3.278
X-1.3342 Y0.8415 Z3.2825
G00 Z4.4509
X-1.2651 Y-0.8852
Z3.32
G01 Z3.2825 F79.8576
Y-0.885 Z3.278
X-1.2653 Y-0.8842 Z3.2736
X-1.2657 Y-0.8829 Z3.2692
X-1.2661 Y-0.8811 Z3.2651
X-1.2667 Y-0.8788 Z3.2612
X-1.2674 Y-0.8761 Z3.2577
X-1.2682 Y-0.873 Z3.2545
X-1.2691 Y-0.8695 Z3.2517
X-1.27 Y-0.8658 Z3.2493
X-1.271 Y-0.8618 Z3.2475
X-1.2721 Y-0.8576 Z3.2461
X-1.2732 Y-0.8533 Z3.2453
X-1.2743 Y-0.8489 Z3.245
G03 X-1.2891 Y-0.8218 I-0.0604 J-0.0154
G02 X-1.3295 Y-0.7702 I0.1541 J0.1623
X-1.4731 Y-0.3509 I0.5847 J0.4344
X-1.4796 Y0.4032 I10.5872 J0.4691
X-1.374 Y0.6512 I0.4095 J-0.028
G03 X-1.3514 Y0.7084 I-0.1198 J0.0804
G01 X-1.3486 Y0.7197
X-1.3443 Y0.7351
X-1.3419 Y0.7421
G03 X-1.3454 Y0.772 I-0.0359 J0.0109
G01 X-1.3477 Y0.7759 Z3.2453
X-1.35 Y0.7797 Z3.2461
X-1.3521 Y0.7835 Z3.2475
X-1.3542 Y0.787 Z3.2493
X-1.3562 Y0.7904 Z3.2517
X-1.358 Y0.7934 Z3.2545
X-1.3596 Y0.7962 Z3.2577
X-1.361 Y0.7986 Z3.2612
X-1.3622 Y0.8006 Z3.2651
X-1.3632 Y0.8022 Z3.2692
X-1.3638 Y0.8034 Z3.2736
X-1.3643 Y0.8041 Z3.278
X-1.3644 Y0.8043 Z3.2825
G00 Z4.4509
X-1.3288 Y-0.8381
Z3.32
G01 Z3.2825 F79.8576
Y-0.8379 Z3.278
X-1.3287 Y-0.8371 Z3.2736
X-1.3286 Y-0.8357 Z3.2692
X-1.3284 Y-0.8339 Z3.2651
X-1.3281 Y-0.8315 Z3.2612
X-1.3279 Y-0.8288 Z3.2577
X-1.3275 Y-0.8256 Z3.2545
X-1.3272 Y-0.822 Z3.2517
X-1.3268 Y-0.8182 Z3.2493
X-1.3264 Y-0.8141 Z3.2475
X-1.3259 Y-0.8098 Z3.2461
X-1.3255 Y-0.8053 Z3.2453
X-1.325 Y-0.8008 Z3.245
G03 X-1.3296 Y-0.7703 I-0.062 J0.0063
G01 X-1.3322 Y-0.7646
X-1.3419 Y-0.7421
X-1.3443 Y-0.7351
G02 X-1.4261 Y-0.51 I1.6919 J0.7424
X-1.4571 Y-0.024 I2.1754 J0.3828
X-1.4531 Y0.4196 I4.313 J0.1826
X-1.3637 Y0.6249 I0.6026 J-0.1402
G01 X-1.36 Y0.6408
X-1.3569 Y0.6562
X-1.3556 Y0.672
G03 X-1.3681 Y0.6993 I-0.0375 J-0.0006
G01 X-1.3714 Y0.7023 Z3.2453
X-1.3747 Y0.7053 Z3.2461
X-1.378 Y0.7082 Z3.2475
X-1.381 Y0.7109 Z3.2493
X-1.3839 Y0.7135 Z3.2517
X-1.3866 Y0.7159 Z3.2545
X-1.389 Y0.718 Z3.2577
X-1.391 Y0.7199 Z3.2612
X-1.3928 Y0.7215 Z3.2651
X-1.3942 Y0.7227 Z3.2692
X-1.3952 Y0.7236 Z3.2736
X-1.3958 Y0.7242 Z3.278
X-1.396 Y0.7243 Z3.2825
G00 Z4.4509
X-1.3546 Y-0.8022
Z3.32
G01 Z3.2825 F79.8576
X-1.3545 Y-0.8019 Z3.278
X-1.3543 Y-0.8012 Z3.2736
X-1.354 Y-0.7999 Z3.2692
X-1.3535 Y-0.7981 Z3.2651
X-1.3529 Y-0.7958 Z3.2612
X-1.3521 Y-0.7931 Z3.2577
X-1.3513 Y-0.79 Z3.2545
X-1.3503 Y-0.7866 Z3.2517
X-1.3493 Y-0.7828 Z3.2493
X-1.3482 Y-0.7789 Z3.2475
X-1.3471 Y-0.7747 Z3.2461
X-1.3459 Y-0.7704 Z3.2453
X-1.3447 Y-0.766 Z3.245
G03 X-1.3443 Y-0.7351 I-0.0601 J0.0164
G01 X-1.3486 Y-0.7197
X-1.3514 Y-0.7084
X-1.354 Y-0.691
G02 X-1.4176 Y-0.4233 I3.6733 J1.0136
X-1.4351 Y0.1529 I4.5109 J0.4253
X-1.4137 Y0.4616 I1.0199 J0.0844
G03 X-1.3558 Y0.6033 I-1.3597 J0.638
G01 X-1.356 Y0.6215
Y0.6522
X-1.3556 Y0.672
G03 X-1.3681 Y0.6993 I-0.0375 J-0.0006
G01 X-1.3714 Y0.7023 Z3.2453
X-1.3747 Y0.7053 Z3.2461
X-1.378 Y0.7082 Z3.2475
X-1.381 Y0.7109 Z3.2493
X-1.3839 Y0.7135 Z3.2517
X-1.3866 Y0.7159 Z3.2545
X-1.389 Y0.718 Z3.2577
X-1.391 Y0.7199 Z3.2612
X-1.3928 Y0.7215 Z3.2651
X-1.3942 Y0.7227 Z3.2692
X-1.3952 Y0.7236 Z3.2736
X-1.3958 Y0.7242 Z3.278
X-1.396 Y0.7243 Z3.2825
G00 Z4.4509
X-1.3724 Y-0.7563
Z3.32
G01 Z3.2825 F79.8576
X-1.3723 Y-0.7561 Z3.278
X-1.372 Y-0.7553 Z3.2736
X-1.3715 Y-0.7541 Z3.2692
X-1.3708 Y-0.7523 Z3.2651
X-1.3699 Y-0.7502 Z3.2612
X-1.3689 Y-0.7476 Z3.2577
X-1.3677 Y-0.7446 Z3.2545
X-1.3663 Y-0.7413 Z3.2517
X-1.3648 Y-0.7377 Z3.2493
X-1.3633 Y-0.7339 Z3.2475
X-1.3616 Y-0.7299 Z3.2461
X-1.36 Y-0.7258 Z3.2453
X-1.3582 Y-0.7216 Z3.245
G03 X-1.354 Y-0.691 I-0.0577 J0.0236
G01 X-1.3548 Y-0.6859
X-1.3555 Y-0.6758
X-1.356 Y-0.6522
G03 X-1.3792 Y-0.5061 I-0.8711 J-0.0632
G02 X-1.4123 Y0.0245 I2.6624 J0.4325
X-1.4052 Y0.3791 I2.5956 J0.1253
X-1.3591 Y0.5278 I1.0822 J-0.2542
G01 X-1.3569 Y0.5428
X-1.356 Y0.5579
Y0.6215
G03 X-1.369 Y0.6486 I-0.0375 J-0.0013
G01 X-1.3724 Y0.6516 Z3.2453
X-1.3758 Y0.6545 Z3.2461
X-1.3791 Y0.6573 Z3.2475
X-1.3822 Y0.66 Z3.2493
X-1.3851 Y0.6625 Z3.2517
X-1.3878 Y0.6648 Z3.2545
X-1.3903 Y0.6669 Z3.2577
X-1.3924 Y0.6688 Z3.2612
X-1.3941 Y0.6703 Z3.2651
X-1.3956 Y0.6715 Z3.2692
X-1.3966 Y0.6724 Z3.2736
X-1.3972 Y0.6729 Z3.278
X-1.3974 Y0.6731 Z3.2825
G00 Z4.4509
X-1.3837 Y-0.7141
Z3.32
G01 Z3.2825 F79.8576
X-1.3836 Y-0.7139 Z3.278
X-1.3832 Y-0.7132 Z3.2736
X-1.3825 Y-0.712 Z3.2692
X-1.3815 Y-0.7104 Z3.2651
X-1.3804 Y-0.7084 Z3.2612
X-1.3789 Y-0.706 Z3.2577
X-1.3773 Y-0.7033 Z3.2545
X-1.3755 Y-0.7002 Z3.2517
X-1.3735 Y-0.6969 Z3.2493
X-1.3714 Y-0.6933 Z3.2475
X-1.3692 Y-0.6896 Z3.2461
X-1.3669 Y-0.6858 Z3.2453
X-1.3646 Y-0.6819 Z3.245
G03 X-1.356 Y-0.6522 I-0.0536 J0.0317
G01 Y-0.5735
G02 X-1.3878 Y-0.2123 I19.6042 J1.9083
X-1.3879 Y0.3201 I9.266 J0.2673
G03 X-1.3552 Y0.4767 I-2.4162 J0.5856
G01 X-1.356 Y0.5579
G03 X-1.369 Y0.585 I-0.0375 J-0.0013
G01 X-1.3724 Y0.5879 Z3.2453
X-1.3758 Y0.5908 Z3.2461
X-1.3791 Y0.5936 Z3.2475
X-1.3822 Y0.5963 Z3.2493
X-1.3851 Y0.5989 Z3.2517
X-1.3878 Y0.6012 Z3.2545
X-1.3903 Y0.6033 Z3.2577
X-1.3924 Y0.6051 Z3.2612
X-1.3941 Y0.6066 Z3.2651
X-1.3956 Y0.6079 Z3.2692
X-1.3966 Y0.6087 Z3.2736
X-1.3972 Y0.6093 Z3.278
X-1.3974 Y0.6094 Z3.2825
G00 Z4.4509
X-1.3839 Y-0.6354
Z3.32
G01 Z3.2825 F79.8576
X-1.3837 Y-0.6351 Z3.278
X-1.3833 Y-0.6344 Z3.2736
X-1.3826 Y-0.6333 Z3.2692
X-1.3817 Y-0.6317 Z3.2651
X-1.3805 Y-0.6297 Z3.2612
X-1.3791 Y-0.6273 Z3.2577
X-1.3774 Y-0.6245 Z3.2545
X-1.3756 Y-0.6215 Z3.2517
X-1.3736 Y-0.6181 Z3.2493
X-1.3715 Y-0.6146 Z3.2475
X-1.3693 Y-0.6109 Z3.2461
X-1.367 Y-0.607 Z3.2453
X-1.3647 Y-0.6031 Z3.245
G03 X-1.356 Y-0.5735 I-0.0536 J0.0318
G01 Y-0.4161
G02 X-1.3678 Y0.2493 I10.5774 J0.5198
G03 X-1.356 Y0.358 I-2.3309 J0.3079
G01 Y0.4768
G03 X-1.369 Y0.5039 I-0.0375 J-0.0013
G01 X-1.3724 Y0.5069 Z3.2453
X-1.3758 Y0.5098 Z3.2461
X-1.3791 Y0.5126 Z3.2475
X-1.3822 Y0.5153 Z3.2493
X-1.3851 Y0.5178 Z3.2517
X-1.3878 Y0.5202 Z3.2545
X-1.3903 Y0.5223 Z3.2577
X-1.3924 Y0.5241 Z3.2612
X-1.3941 Y0.5256 Z3.2651
X-1.3956 Y0.5268 Z3.2692
X-1.3966 Y0.5277 Z3.2736
X-1.3972 Y0.5282 Z3.278
X-1.3974 Y0.5284 Z3.2825
G00 Z4.4509
X-1.3839 Y-0.478
Z3.32
G01 Z3.2825 F79.8576
X-1.3837 Y-0.4777 Z3.278
X-1.3833 Y-0.477 Z3.2736
X-1.3826 Y-0.4759 Z3.2692
X-1.3817 Y-0.4743 Z3.2651
X-1.3805 Y-0.4722 Z3.2612
X-1.3791 Y-0.4698 Z3.2577
X-1.3774 Y-0.4671 Z3.2545
X-1.3756 Y-0.464 Z3.2517
X-1.3736 Y-0.4607 Z3.2493
X-1.3715 Y-0.4572 Z3.2475
X-1.3693 Y-0.4534 Z3.2461
X-1.367 Y-0.4496 Z3.2453
X-1.3647 Y-0.4457 Z3.245
G03 X-1.356 Y-0.4161 I-0.0536 J0.0318
G01 Y0.358
G03 X-1.369 Y0.3851 I-0.0375 J-0.0013
G01 X-1.3724 Y0.3881 Z3.2453
X-1.3758 Y0.391 Z3.2461
X-1.3791 Y0.3938 Z3.2475
X-1.3822 Y0.3965 Z3.2493
X-1.3851 Y0.399 Z3.2517
X-1.3878 Y0.4014 Z3.2545
X-1.3903 Y0.4034 Z3.2577
X-1.3924 Y0.4053 Z3.2612
X-1.3941 Y0.4068 Z3.2651
X-1.3956 Y0.408 Z3.2692
X-1.3966 Y0.4089 Z3.2736
X-1.3972 Y0.4094 Z3.278
X-1.3974 Y0.4096 Z3.2825
G00 Z4.4509
X1.0947 Y0.9152
Z3.32
G01 Z3.2825 F79.8576
X1.0949 Y0.915 Z3.278
X1.0955 Y0.9145 Z3.2736
X1.0966 Y0.9137 Z3.2692
X1.0981 Y0.9126 Z3.2651
X1.0999 Y0.9112 Z3.2612
X1.1022 Y0.9095 Z3.2577
X1.1047 Y0.9075 Z3.2545
X1.1076 Y0.9054 Z3.2517
X1.1107 Y0.903 Z3.2493
X1.1139 Y0.9005 Z3.2475
X1.1174 Y0.8979 Z3.2461
X1.1209 Y0.8952 Z3.2453
X1.1245 Y0.8925 Z3.245
G03 X1.153 Y0.8805 I0.0377 J0.0496
G02 X1.193 Y0.8741 I-0.0207 J-0.2571
G03 X1.3186 Y0.8511 I0.6409 J3.1378
G02 X1.5426 Y0.5988 I-0.0934 J-0.3085
X1.5698 Y0.2904 I-1.1259 J-0.2546
X1.5719 Y0.0685 I-5.8559 J-0.1662
G01 Y-0.1534
Y-0.5084
G02 X1.3597 Y-0.8129 I-0.3017 J-0.016
G03 X1.2659 Y-0.8422 I0.8593 J-2.9175
G01 X1.2531 Y-0.8496
G02 X1.1868 Y-0.8756 I-0.1077 J0.1775
G01 X1.1826 Y-0.8772
X1.1787 Y-0.8792
X1.1751 Y-0.8817
X1.1717 Y-0.8847
X1.1688 Y-0.8879
X1.1662 Y-0.8915
X1.1641 Y-0.8954
X1.1622 Y-0.8995 Z3.2453
X1.1603 Y-0.9035 Z3.2461
X1.1584 Y-0.9074 Z3.2475
X1.1566 Y-0.9112 Z3.2493
X1.155 Y-0.9147 Z3.2517
X1.1534 Y-0.9179 Z3.2545
X1.1521 Y-0.9208 Z3.2577
X1.1509 Y-0.9233 Z3.2612
X1.1499 Y-0.9254 Z3.2651
X1.1491 Y-0.9271 Z3.2692
X1.1485 Y-0.9283 Z3.2736
X1.1481 Y-0.9291 Z3.278
X1.148 Y-0.9293 Z3.2825
G00 Z4.4509
X1.1407 Y0.9173
Z3.32
G01 Z3.2825 F79.8576
X1.1409 Y0.9171 Z3.278
X1.1414 Y0.9165 Z3.2736
X1.1424 Y0.9155 Z3.2692
X1.1437 Y0.9142 Z3.2651
X1.1453 Y0.9125 Z3.2612
X1.1472 Y0.9105 Z3.2577
X1.1494 Y0.9082 Z3.2545
X1.1519 Y0.9056 Z3.2517
X1.1546 Y0.9028 Z3.2493
X1.1575 Y0.8999 Z3.2475
X1.1605 Y0.8967 Z3.2461
X1.1635 Y0.8935 Z3.2453
X1.1667 Y0.8903 Z3.245
G03 X1.193 Y0.874 I0.0449 J0.0432
G01 X1.2093 Y0.8695
X1.2195 Y0.8658
X1.2318 Y0.8606
G02 X1.4236 Y0.7533 I-0.1213 J-0.4422
X1.5366 Y0.4701 I-0.354 J-0.3055
X1.5481 Y0.0268 I-3.7378 J-0.3183
G01 X1.5494 Y-0.1508
Y-0.4614
G02 X1.3358 Y-0.7864 I-0.3199 J-0.0225
G01 X1.3219 Y-0.7945
X1.3088 Y-0.8035
X1.2968 Y-0.814
G02 X1.2531 Y-0.8496 I-0.1573 J0.1486
G03 X1.2371 Y-0.8751 I0.0211 J-0.031
G01 X1.2365 Y-0.8796 Z3.2453
X1.2358 Y-0.884 Z3.2461
X1.2352 Y-0.8883 Z3.2475
X1.2346 Y-0.8923 Z3.2493
X1.234 Y-0.8962 Z3.2517
X1.2335 Y-0.8997 Z3.2545
X1.233 Y-0.9029 Z3.2577
X1.2326 Y-0.9056 Z3.2612
X1.2322 Y-0.908 Z3.2651
X1.232 Y-0.9098 Z3.2692
X1.2318 Y-0.9111 Z3.2736
X1.2317 Y-0.9119 Z3.278
X1.2316 Y-0.9122 Z3.2825
G00 Z4.4509
X1.1858 Y0.9105
Z3.32
G01 Z3.2825 F79.8576
X1.186 Y0.9103 Z3.278
X1.1864 Y0.9096 Z3.2736
X1.1872 Y0.9086 Z3.2692
X1.1883 Y0.9071 Z3.2651
X1.1897 Y0.9052 Z3.2612
X1.1914 Y0.9029 Z3.2577
X1.1932 Y0.9003 Z3.2545
X1.1953 Y0.8974 Z3.2517
X1.1976 Y0.8943 Z3.2493
X1.2001 Y0.891 Z3.2475
X1.2026 Y0.8875 Z3.2461
X1.2052 Y0.8839 Z3.2453
X1.2079 Y0.8802 Z3.245
G03 X1.2318 Y0.8606 I0.0503 J0.0368
G02 X1.2665 Y0.8406 I-0.0487 J-0.1246
X1.4314 Y0.6942 I-0.2819 J-0.4837
X1.52 Y0.3553 I-0.5484 J-0.3244
X1.5269 Y-0.0441 I-6.2798 J-0.3081
G01 Y-0.3103
G02 X1.5171 Y-0.5316 I-1.1497 J-0.0597
X1.3463 Y-0.7497 I-0.3561 J0.1029
G01 X1.3356 Y-0.7626
X1.3261 Y-0.7759
G02 X1.2968 Y-0.814 I-0.1741 J0.1033
G03 X1.2869 Y-0.8424 I0.0274 J-0.0256
G01 X1.2872 Y-0.8469 Z3.2453
X1.2875 Y-0.8513 Z3.2461
X1.2879 Y-0.8557 Z3.2475
X1.2882 Y-0.8598 Z3.2493
X1.2884 Y-0.8636 Z3.2517
X1.2887 Y-0.8672 Z3.2545
X1.2889 Y-0.8704 Z3.2577
X1.2892 Y-0.8732 Z3.2612
X1.2893 Y-0.8755 Z3.2651
X1.2895 Y-0.8774 Z3.2692
X1.2896 Y-0.8787 Z3.2736
Y-0.8795 Z3.278
Y-0.8798 Z3.2825
G00 Z4.4509
X1.2346 Y0.9005
Z3.32
G01 Z3.2825 F79.8576
X1.2347 Y0.9002 Z3.278
X1.235 Y0.8995 Z3.2736
X1.2355 Y0.8982 Z3.2692
X1.2361 Y0.8965 Z3.2651
X1.237 Y0.8943 Z3.2612
X1.238 Y0.8917 Z3.2577
X1.2392 Y0.8887 Z3.2545
X1.2405 Y0.8854 Z3.2517
X1.242 Y0.8818 Z3.2493
X1.2435 Y0.878 Z3.2475
X1.2451 Y0.874 Z3.2461
X1.2467 Y0.8698 Z3.2453
X1.2484 Y0.8656 Z3.245
G03 X1.2666 Y0.8406 I0.0579 J0.023
G02 X1.3105 Y0.7985 I-0.1332 J-0.1832
X1.4916 Y0.4049 I-0.4025 J-0.4236
X1.5044 Y-0.0828 I-5.0698 J-0.3772
G01 Y-0.3047
G02 X1.4874 Y-0.5251 I-0.8013 J-0.0491
X1.3585 Y-0.7072 I-0.4124 J0.1553
G01 X1.3494 Y-0.7246
X1.3419 Y-0.7421
X1.3322 Y-0.7646
X1.3296 Y-0.7703
X1.3261 Y-0.7759
G03 X1.3229 Y-0.8058 I0.0326 J-0.0186
G01 X1.3243 Y-0.8101 Z3.2453
X1.3256 Y-0.8143 Z3.2461
X1.3269 Y-0.8184 Z3.2475
X1.3282 Y-0.8224 Z3.2493
X1.3293 Y-0.8261 Z3.2517
X1.3304 Y-0.8295 Z3.2545
X1.3314 Y-0.8325 Z3.2577
X1.3322 Y-0.8352 Z3.2612
X1.3329 Y-0.8374 Z3.2651
X1.3335 Y-0.8392 Z3.2692
X1.3339 Y-0.8405 Z3.2736
X1.3341 Y-0.8413 Z3.278
X1.3342 Y-0.8415 Z3.2825
G00 Z4.4509
X1.2914 Y0.8636
Z3.32
G01 Z3.2825 F79.8576
Y0.8634 Z3.278
X1.2915 Y0.8626 Z3.2736
X1.2918 Y0.8612 Z3.2692
X1.2921 Y0.8594 Z3.2651
X1.2925 Y0.8571 Z3.2612
X1.293 Y0.8544 Z3.2577
X1.2935 Y0.8512 Z3.2545
X1.2941 Y0.8477 Z3.2517
X1.2948 Y0.8439 Z3.2493
X1.2955 Y0.8398 Z3.2475
X1.2963 Y0.8355 Z3.2461
X1.297 Y0.8312 Z3.2453
X1.2978 Y0.8267 Z3.245
G03 X1.3105 Y0.7985 I0.0614 J0.0107
G02 X1.3304 Y0.7686 I-0.1878 J-0.1461
X1.4347 Y0.5567 I-1.0133 J-0.6305
X1.4788 Y0.1615 I-1.2463 J-0.3391
Y-0.4153 I-13.5232 J-0.2894
X1.3739 Y-0.6513 I-0.4087 J0.0404
G03 X1.3514 Y-0.7084 I0.1192 J-0.0799
G01 X1.3486 Y-0.7197
X1.3443 Y-0.7351
X1.3419 Y-0.7421
G03 X1.3454 Y-0.772 I0.0359 J-0.0109
G01 X1.3477 Y-0.7759 Z3.2453
X1.35 Y-0.7797 Z3.2461
X1.3521 Y-0.7835 Z3.2475
X1.3542 Y-0.787 Z3.2493
X1.3562 Y-0.7904 Z3.2517
X1.358 Y-0.7934 Z3.2545
X1.3596 Y-0.7962 Z3.2577
X1.361 Y-0.7986 Z3.2612
X1.3622 Y-0.8006 Z3.2651
X1.3632 Y-0.8022 Z3.2692
X1.3638 Y-0.8034 Z3.2736
X1.3643 Y-0.8041 Z3.278
X1.3644 Y-0.8043 Z3.2825
G00 Z4.4509
X1.3296 Y0.8364
Z3.32
G01 Z3.2825 F79.8576
Y0.8362 Z3.278
X1.3295 Y0.8354 Z3.2736
X1.3294 Y0.834 Z3.2692
X1.3292 Y0.8322 Z3.2651
X1.3289 Y0.8298 Z3.2612
X1.3287 Y0.8271 Z3.2577
X1.3283 Y0.8239 Z3.2545
X1.328 Y0.8203 Z3.2517
X1.3276 Y0.8165 Z3.2493
X1.3272 Y0.8124 Z3.2475
X1.3267 Y0.8081 Z3.2461
X1.3263 Y0.8036 Z3.2453
X1.3258 Y0.7991 Z3.245
G03 X1.3304 Y0.7686 I0.062 J-0.0063
G02 X1.3472 Y0.7247 I-0.1851 J-0.096
X1.4191 Y0.5203 I-4.6703 J-1.7578
X1.4567 Y0.1238 I-1.5286 J-0.3449
X1.4551 Y-0.4085 I-8.3098 J-0.2417
X1.3638 Y-0.6245 I-0.5783 J0.1172
G01 X1.3601 Y-0.6405
X1.3569 Y-0.6561
X1.3556 Y-0.6719
G03 X1.3681 Y-0.6992 I0.0375 J0.0006
G01 X1.3714 Y-0.7023 Z3.2453
X1.3747 Y-0.7052 Z3.2461
X1.378 Y-0.7081 Z3.2475
X1.381 Y-0.7109 Z3.2493
X1.3839 Y-0.7135 Z3.2517
X1.3866 Y-0.7158 Z3.2545
X1.389 Y-0.718 Z3.2577
X1.391 Y-0.7198 Z3.2612
X1.3928 Y-0.7214 Z3.2651
X1.3942 Y-0.7226 Z3.2692
X1.3952 Y-0.7235 Z3.2736
X1.3958 Y-0.7241 Z3.278
X1.396 Y-0.7243 Z3.2825
G00 Z4.4509
X1.3575 Y0.7918
Z3.32
G01 Z3.2825 F79.8576
X1.3574 Y0.7916 Z3.278
X1.3572 Y0.7908 Z3.2736
X1.3568 Y0.7895 Z3.2692
X1.3563 Y0.7877 Z3.2651
X1.3557 Y0.7854 Z3.2612
X1.355 Y0.7827 Z3.2577
X1.3542 Y0.7796 Z3.2545
X1.3532 Y0.7762 Z3.2517
X1.3522 Y0.7725 Z3.2493
X1.3511 Y0.7685 Z3.2475
X1.35 Y0.7643 Z3.2461
X1.3488 Y0.76 Z3.2453
X1.3476 Y0.7556 Z3.245
G03 X1.3471 Y0.7247 I0.0601 J-0.0164
G02 X1.3549 Y0.6842 I-0.1752 J-0.0545
G03 X1.3873 Y0.5502 I0.8471 J0.1337
G02 X1.4339 Y0.1104 I-1.6048 J-0.3925
X1.4324 Y-0.3776 I-6.8328 J-0.2232
X1.3593 Y-0.5857 I-0.74 J0.1431
G01 X1.3572 Y-0.6039
X1.356 Y-0.6215
Y-0.6522
X1.3556 Y-0.6719
G03 X1.3681 Y-0.6992 I0.0375 J0.0006
G01 X1.3714 Y-0.7023 Z3.2453
X1.3747 Y-0.7052 Z3.2461
X1.378 Y-0.7081 Z3.2475
X1.381 Y-0.7109 Z3.2493
X1.3839 Y-0.7135 Z3.2517
X1.3866 Y-0.7158 Z3.2545
X1.389 Y-0.718 Z3.2577
X1.391 Y-0.7198 Z3.2612
X1.3928 Y-0.7214 Z3.2651
X1.3942 Y-0.7226 Z3.2692
X1.3952 Y-0.7235 Z3.2736
X1.3958 Y-0.7241 Z3.278
X1.396 Y-0.7243 Z3.2825
G00 Z4.4509
X1.3781 Y0.748
Z3.32
G01 Z3.2825 F79.8576
X1.378 Y0.7478 Z3.278
X1.3777 Y0.747 Z3.2736
X1.3771 Y0.7458 Z3.2692
X1.3762 Y0.7442 Z3.2651
X1.3752 Y0.7421 Z3.2612
X1.3739 Y0.7396 Z3.2577
X1.3725 Y0.7367 Z3.2545
X1.3709 Y0.7335 Z3.2517
X1.3692 Y0.7301 Z3.2493
X1.3673 Y0.7264 Z3.2475
X1.3654 Y0.7225 Z3.2461
X1.3634 Y0.7185 Z3.2453
X1.3614 Y0.7145 Z3.245
G03 X1.3549 Y0.6842 I0.0558 J-0.0278
G01 X1.3555 Y0.6758
X1.356 Y0.6522
Y0.646
G03 X1.3799 Y0.4871 I0.9555 J0.0628
G02 X1.4123 Y-0.0435 I-2.7436 J-0.4337
X1.4018 Y-0.3979 I-2.0769 J-0.116
X1.3593 Y-0.527 I-1.6765 J0.4802
G01 X1.3569 Y-0.5424
X1.356 Y-0.5578
Y-0.6215
G03 X1.369 Y-0.6486 I0.0375 J0.0013
G01 X1.3724 Y-0.6516 Z3.2453
X1.3758 Y-0.6545 Z3.2461
X1.3791 Y-0.6573 Z3.2475
X1.3822 Y-0.66 Z3.2493
X1.3851 Y-0.6625 Z3.2517
X1.3878 Y-0.6649 Z3.2545
X1.3903 Y-0.667 Z3.2577
X1.3924 Y-0.6688 Z3.2612
X1.3941 Y-0.6703 Z3.2651
X1.3956 Y-0.6715 Z3.2692
X1.3966 Y-0.6724 Z3.2736
X1.3972 Y-0.6729 Z3.278
X1.3974 Y-0.6731 Z3.2825
G00 Z4.4509
X1.3837 Y0.708
Z3.32
G01 Z3.2825 F79.8576
X1.3836 Y0.7077 Z3.278
X1.3832 Y0.707 Z3.2736
X1.3825 Y0.7059 Z3.2692
X1.3816 Y0.7043 Z3.2651
X1.3804 Y0.7022 Z3.2612
X1.3789 Y0.6998 Z3.2577
X1.3773 Y0.6971 Z3.2545
X1.3755 Y0.694 Z3.2517
X1.3735 Y0.6907 Z3.2493
X1.3714 Y0.6871 Z3.2475
X1.3692 Y0.6834 Z3.2461
X1.3669 Y0.6796 Z3.2453
X1.3646 Y0.6757 Z3.245
G03 X1.356 Y0.646 I0.0536 J-0.0317
G01 Y0.5622
G02 X1.3877 Y0.1946 I-22.3394 J-2.1139
X1.3896 Y-0.2935 I-10.9355 J-0.2849
X1.3566 Y-0.4652 I-1.8413 J0.2649
G01 X1.356 Y-0.4773
Y-0.5578
G03 X1.369 Y-0.5849 I0.0375 J0.0013
G01 X1.3724 Y-0.5878 Z3.2453
X1.3758 Y-0.5907 Z3.2461
X1.3791 Y-0.5936 Z3.2475
X1.3822 Y-0.5963 Z3.2493
X1.3851 Y-0.5988 Z3.2517
X1.3878 Y-0.6011 Z3.2545
X1.3903 Y-0.6032 Z3.2577
X1.3924 Y-0.605 Z3.2612
X1.3941 Y-0.6066 Z3.2651
X1.3956 Y-0.6078 Z3.2692
X1.3966 Y-0.6087 Z3.2736
X1.3972 Y-0.6092 Z3.278
X1.3974 Y-0.6094 Z3.2825
G00 Z4.4509
X1.3839 Y0.6241
Z3.32
G01 Z3.2825 F79.8576
X1.3837 Y0.6239 Z3.278
X1.3833 Y0.6232 Z3.2736
X1.3826 Y0.622 Z3.2692
X1.3817 Y0.6204 Z3.2651
X1.3805 Y0.6184 Z3.2612
X1.3791 Y0.616 Z3.2577
X1.3774 Y0.6133 Z3.2545
X1.3756 Y0.6102 Z3.2517
X1.3736 Y0.6069 Z3.2493
X1.3715 Y0.6033 Z3.2475
X1.3693 Y0.5996 Z3.2461
X1.367 Y0.5958 Z3.2453
X1.3647 Y0.5919 Z3.245
G03 X1.356 Y0.5622 I0.0536 J-0.0318
G01 Y0.3936
G02 X1.3668 Y-0.2718 I-9.3401 J-0.4847
G03 X1.3558 Y-0.3584 I0.9946 J-0.1702
G01 X1.356 Y-0.4773
G03 X1.369 Y-0.5044 I0.0375 J0.0013
G01 X1.3724 Y-0.5073 Z3.2453
X1.3758 Y-0.5102 Z3.2461
X1.3791 Y-0.5131 Z3.2475
X1.3822 Y-0.5158 Z3.2493
X1.3851 Y-0.5183 Z3.2517
X1.3878 Y-0.5206 Z3.2545
X1.3903 Y-0.5227 Z3.2577
X1.3924 Y-0.5245 Z3.2612
X1.3941 Y-0.5261 Z3.2651
X1.3956 Y-0.5273 Z3.2692
X1.3966 Y-0.5281 Z3.2736
X1.3972 Y-0.5287 Z3.278
X1.3974 Y-0.5289 Z3.2825
G00 Z4.4509
X1.3839 Y0.4555
Z3.32
G01 Z3.2825 F79.8576
X1.3837 Y0.4552 Z3.278
X1.3833 Y0.4545 Z3.2736
X1.3826 Y0.4534 Z3.2692
X1.3817 Y0.4518 Z3.2651
X1.3805 Y0.4498 Z3.2612
X1.3791 Y0.4474 Z3.2577
X1.3774 Y0.4446 Z3.2545
X1.3756 Y0.4415 Z3.2517
X1.3736 Y0.4382 Z3.2493
X1.3715 Y0.4347 Z3.2475
X1.3693 Y0.4309 Z3.2461
X1.367 Y0.4271 Z3.2453
X1.3647 Y0.4232 Z3.245
G03 X1.356 Y0.3936 I0.0536 J-0.0318
G01 Y-0.3584
G03 X1.369 Y-0.3855 I0.0375 J0.0013
G01 X1.3724 Y-0.3885 Z3.2453
X1.3758 Y-0.3914 Z3.2461
X1.3791 Y-0.3942 Z3.2475
X1.3822 Y-0.3969 Z3.2493
X1.3851 Y-0.3994 Z3.2517
X1.3878 Y-0.4017 Z3.2545
X1.3903 Y-0.4038 Z3.2577
X1.3924 Y-0.4057 Z3.2612
X1.3941 Y-0.4072 Z3.2651
X1.3956 Y-0.4084 Z3.2692
X1.3966 Y-0.4093 Z3.2736
X1.3972 Y-0.4098 Z3.278
X1.3974 Y-0.41 Z3.2825
G00 Z4.8509

(PRE OP - 3/8 ROUGHER EM 7FL 1.0LOC)
(FINISH OUTSIDE)
M298 L5
G00 X-1.18 Y0.9875
Z4.8509
Z4.4509
G01 Z3.2784 F40
G19 G02 Y0.95 Z3.2409 J-0.0375 F45.6329
G01 Y0.9125
G17 G03 X-1.1425 Y0.875 I0.0375
G01 X1.1425
G02 X1.35 Y0.6675 J-0.2075
G01 Y-0.6675
G02 X1.1425 Y-0.875 I-0.2075
G01 X-1.1425
G02 X-1.35 Y-0.6675 J0.2075
G01 Y0.6675
G02 X-1.1425 Y0.875 I0.2075
G01 X1.1425
G02 X1.35 Y0.6675 J-0.2075
G01 Y-0.6675
G02 X1.1425 Y-0.875 I-0.2075
G01 X-1.1425
G02 X-1.35 Y-0.6675 J0.2075
G01 Y0.6675
G02 X-1.1425 Y0.875 I0.2075
G03 X-1.105 Y0.9125 J0.0375
G01 Y0.95
G19 G03 Y0.9875 Z3.2784 K0.0375
G00 Z4.8509

(PRE OP - 3/8 ROUGHER EM 7FL 1.0LOC)
(FACE TOP)
M298 L2
G17 G00 X1.4063 Y-0.6425
Z4.8509
Z4.4509
G01 Z4.2284 F40
G18 G03 X1.3688 Z4.1909 I-0.0375 F68.4494
G01 X1.3504
X-1.3504
G17 G02 Y-0.4127 J0.1149
G01 X1.3504
G03 Y-0.1828 J0.1149
G01 X-1.3504
G02 Y0.047 J0.1149
G01 X1.3504
G03 Y0.2769 J0.1149
G01 X-1.3504
G02 Y0.5068 J0.1149
G01 X1.3504
G18 G02 X1.3879 Z4.2284 K0.0375
G00 Z4.8509
M09
M05
G28 G91 Z0
G90
G49
M298 L0

(PRE OP - .25 X 45 DOUBLE ANGLE CUTTER)
(DOVETAIL)
G54
M442 (UNCLAMP A-AXIS)
M444 (UNCLAMP C-AXIS)
G00 A0. C0.
M443 (CLAMP A-AXIS)
M445 (CLAMP C-AXIS)
M01
G90 G17 G94
N15 G100 T72 X1.3328 Y0.7368 G43 Z4.8509 H72 D72 S3144 M03
(FROM MEASURE)
M298 L5
M08
G00 Z4.4509
G01 Z4.0962 F50
G18 G03 X1.3085 Z4.0719 I-0.0243 F18.8628
G01 X1.2842
G17 G03 X1.2599 Y0.7125 J-0.0243
G01 Y-0.7125
G03 X1.2842 Y-0.7368 I0.0243
G01 X1.3085
G18 G02 X1.3328 Z4.0962 K0.0243
G00 Z4.4509
X1.3198 Y0.7368
G01 Z4.0962 F50
G03 X1.2955 Z4.0719 I-0.0243 F18.8628
G01 X1.2712
G17 G03 X1.2469 Y0.7125 J-0.0243
G01 Y-0.7125
G03 X1.2712 Y-0.7368 I0.0243
G01 X1.2955
G18 G02 X1.3198 Z4.0962 K0.0243
G00 Z4.4509
X1.3194 Y0.7368
G01 Z4.0962 F50
G03 X1.2951 Z4.0719 I-0.0243 F18.8628
G17
G01 G41 X1.2708 Y0.7444 D72
G03 X1.2389 Y0.7125 J-0.0319
G01 Y-0.7125
G03 X1.2708 Y-0.7444 I0.0319
G01 G40 X1.2951 Y-0.7368
G18 G02 X1.3194 Z4.0962 K0.0243
G00 Z4.4509
X1.3114 Y0.7368
G01 Z4.0962 F50
G03 X1.2871 Z4.0719 I-0.0243 F18.8628
G17
G01 G41 X1.2628 Y0.7444 D72
G03 X1.2309 Y0.7125 J-0.0319
G01 Y-0.7125
G03 X1.2628 Y-0.7444 I0.0319
G01 G40 X1.2871 Y-0.7368
G18 G02 X1.3114 Z4.0962 K0.0243
G00 Z4.4509
X-1.3328
G01 Z4.0962 F50
G02 X-1.3085 Z4.0719 I0.0243 F18.8628
G01 X-1.2842
G17 G03 X-1.2599 Y-0.7125 J0.0243
G01 Y0.7125
G03 X-1.2842 Y0.7368 I-0.0243
G01 X-1.3085
G18 G03 X-1.3328 Z4.0962 K0.0243
G00 Z4.4509
X-1.3198 Y-0.7368
G01 Z4.0962 F50
G02 X-1.2955 Z4.0719 I0.0243 F18.8628
G01 X-1.2712
G17 G03 X-1.2469 Y-0.7125 J0.0243
G01 Y0.7125
G03 X-1.2712 Y0.7368 I-0.0243
G01 X-1.2955
G18 G03 X-1.3198 Z4.0962 K0.0243
G00 Z4.4509
X-1.3194 Y-0.7368
G01 Z4.0962 F50
G02 X-1.2951 Z4.0719 I0.0243 F18.8628
G17
G01 G41 X-1.2708 Y-0.7444 D72
G03 X-1.2389 Y-0.7125 J0.0319
G01 Y0.7125
G03 X-1.2708 Y0.7444 I-0.0319
G01 G40 X-1.2951 Y0.7368
G18 G03 X-1.3194 Z4.0962 K0.0243
G00 Z4.4509
X-1.3114 Y-0.7368
G01 Z4.0962 F50
G02 X-1.2871 Z4.0719 I0.0243 F18.8628
G17
G01 G41 X-1.2628 Y-0.7444 D72
G03 X-1.2309 Y-0.7125 J0.0319
G01 Y0.7125
G03 X-1.2628 Y0.7444 I-0.0319
G01 G40 X-1.2871 Y0.7368
G18 G03 X-1.3114 Z4.0962 K0.0243
G00 Z4.8509
M09
M05
G28 G91 Z0
G90
G49
M298 L0

(PRE OP - 1/8 90DEG CHAMFER)
(CHAMFER TOP)
G54
M442 (UNCLAMP A-AXIS)
M444 (UNCLAMP C-AXIS)
G00 A0. C0.
M443 (CLAMP A-AXIS)
M445 (CLAMP C-AXIS)
M01
G90 G17 G94
N20 G100 T52 X-1.155 Y0.7762 G43 Z4.8509 H52 D52 S9167 M03
M298 L5
M08
G00 Z4.4509
G01 Z4.1534 F60
G19 G02 Y0.7638 Z4.1409 J-0.0125 F73.3386
G17
G01 G41 X-1.1613 Y0.7513 D52
G03 X-1.1425 Y0.7325 I0.0187
G01 X1.1425
G02 X1.2075 Y0.6675 J-0.065
G01 Y-0.6675
G02 X1.1425 Y-0.7325 I-0.065
G01 X-1.1425
G02 X-1.2075 Y-0.6675 J0.065
G01 Y0.6675
G02 X-1.1425 Y0.7325 I0.065
G03 X-1.1237 Y0.7513 J0.0188
G01 G40 X-1.13 Y0.7638
G19 G03 Y0.7762 Z4.1534 K0.0125
G00 Z4.8509
G28 G91 Z0
G90
G49

M09
G100 T51
G53 G00 X0 Y0
M298 L0
M30
